profils/20230909_cyanotype_3min/profils/LUT1D_cyano_3min.cube
#Created by: Easy Digital Negatives
TITLE  "Easy Digital Negatives"
LUT_1D_SIZE 21
DOMAIN_MIN 0.0 0.0 0.0
DOMAIN_MAX 1.0 1.0 1.0
#LUT data points
0.007843 0.007843 0.007843
0.276923 0.276923 0.276923
0.426923 0.426923 0.426923
0.509211 0.509211 0.509211
0.537255 0.537255 0.537255
0.572266 0.572266 0.572266
0.607792 0.607792 0.607792
0.631180 0.631180 0.631180
0.647059 0.647059 0.647059
0.665217 0.665217 0.665217
0.683594 0.683594 0.683594
0.709107 0.709107 0.709107
0.729412 0.729412 0.729412
0.740060 0.740060 0.740060
0.750838 0.750838 0.750838
0.769634 0.769634 0.769634
0.784314 0.784314 0.784314
0.810829 0.810829 0.810829
0.829565 0.829565 0.829565
0.871488 0.871488 0.871488
0.984314 0.984314 0.984314
#END data
#approx. Dmax(Lab): 1.104
