profils/20230909_cyanotype_3min/profils/LUT3Dscreen_cyano_3min.cube
#Created by: Easy Digital Negatives
TITLE  "Easy Digital Negatives"
LUT_3D_SIZE 21
DOMAIN_MIN 0.0 0.0 0.0
DOMAIN_MAX 1.0 1.0 1.0
#LUT data points
0.000000 0.079438 0.238181
0.000000 0.088440 0.249447
0.000000 0.097480 0.260761
0.000000 0.103456 0.268239
0.000000 0.112496 0.279553
0.000000 0.120939 0.289318
0.000000 0.126058 0.294439
0.000000 0.133719 0.302104
0.000000 0.141380 0.309769
0.000000 0.146499 0.314890
0.000000 0.155324 0.324715
0.000000 0.165237 0.336615
0.000000 0.175151 0.348515
0.000000 0.181774 0.356466
0.000000 0.191688 0.368366
0.000000 0.200684 0.376224
0.000000 0.206609 0.381199
0.000000 0.215478 0.388646
0.000000 0.224346 0.396093
0.000000 0.230272 0.401068
0.000000 0.239407 0.410040
0.000000 0.106482 0.272027
0.000000 0.115484 0.283293
0.000000 0.123482 0.291862
0.000000 0.128600 0.296983
0.000000 0.136294 0.304681
0.000000 0.143956 0.312346
0.000000 0.151991 0.320714
0.000000 0.158614 0.328665
0.000000 0.168528 0.340565
0.000000 0.178484 0.352516
0.000000 0.188398 0.364416
0.000000 0.194758 0.371249
0.000000 0.203627 0.378696
0.000000 0.212496 0.386143
0.000000 0.218421 0.391118
0.000000 0.227328 0.398596
0.000000 0.236375 0.407062
0.000000 0.242477 0.413057
0.000000 0.251612 0.422029
0.000000 0.260747 0.431001
0.000000 0.266850 0.436996
0.000000 0.133719 0.302104
0.000000 0.138837 0.307225
0.000000 0.146499 0.314890
0.000000 0.155324 0.324715
0.000000 0.161947 0.332665
0.000000 0.171861 0.344565
0.000000 0.181774 0.356466
0.000000 0.191688 0.368366
0.000000 0.197702 0.373720
0.000000 0.206609 0.381199
0.000000 0.215478 0.388646
0.000000 0.221403 0.393621
0.000000 0.230272 0.401068
0.000000 0.239407 0.410040
0.000000 0.248580 0.419051
0.000000 0.254644 0.425007
0.000000 0.263818 0.434018
0.000000 0.273121 0.442917
0.000000 0.279494 0.448794
0.000000 0.289032 0.457590
0.000000 0.298570 0.466387
0.000000 0.155324 0.324715
0.000000 0.165237 0.336615
0.000000 0.175151 0.348515
0.000000 0.181774 0.356466
0.000000 0.191688 0.368366
0.000000 0.200684 0.376224
0.000000 0.209552 0.383671
0.000000 0.215478 0.388646
0.000000 0.224346 0.396093
0.000000 0.233304 0.404046
0.000000 0.239407 0.410040
0.000000 0.248580 0.419051
0.000000 0.257715 0.428023
0.000000 0.263818 0.434018
0.000000 0.273121 0.442917
0.000000 0.282659 0.451713
0.000000 0.292238 0.460547
0.000000 0.298570 0.466387
0.000000 0.308149 0.475221
0.000000 0.317907 0.482843
0.000000 0.324456 0.487779
0.000000 0.185107 0.360466
0.000000 0.194758 0.371249
0.000000 0.203627 0.378696
0.000000 0.212496 0.386143
0.000000 0.218421 0.391118
0.000000 0.227328 0.398596
0.000000 0.236375 0.407062
0.000000 0.242477 0.413057
0.000000 0.251612 0.422029
0.000000 0.260747 0.431001
0.000000 0.269955 0.439997
0.000000 0.276287 0.445836
0.000000 0.285866 0.454671
0.000000 0.295404 0.463467
0.000000 0.304942 0.472264
0.000000 0.311358 0.477907
0.000000 0.321203 0.485327
0.000000 0.331005 0.492715
0.000000 0.337554 0.497651
0.000000 0.347357 0.505040
0.000000 0.356658 0.512074
0.000000 0.215478 0.388646
0.000000 0.224346 0.396093
0.000000 0.230272 0.401068
0.000000 0.239407 0.410040
0.000000 0.248580 0.419051
0.000000 0.254644 0.425007
0.000000 0.263818 0.434018
0.000000 0.273121 0.442917
0.000000 0.279494 0.448794
0.000000 0.289032 0.457590
0.000000 0.298570 0.466387
0.000000 0.308149 0.475221
0.000000 0.314654 0.480391
0.000000 0.324456 0.487779
0.000000 0.334259 0.495168
0.000000 0.340808 0.500104
0.000000 0.350611 0.507492
0.000000 0.359664 0.514354
0.000000 0.368606 0.521135
0.000000 0.374580 0.525665
0.000000 0.383522 0.532446
0.000000 0.242477 0.413057
0.000000 0.251612 0.422029
0.000000 0.260747 0.431001
0.000000 0.266850 0.436996
0.000000 0.276287 0.445836
0.000000 0.285866 0.454671
0.000000 0.292238 0.460547
0.000000 0.301776 0.469344
0.000000 0.311358 0.477907
0.000000 0.321203 0.485327
0.000000 0.327710 0.490232
0.000000 0.337554 0.497651
0.000000 0.347357 0.505040
0.000000 0.353690 0.509823
0.000000 0.362632 0.516604
0.000000 0.371574 0.523385
0.000000 0.377548 0.527915
0.000000 0.386528 0.534725
0.004682 0.396488 0.543688
0.011690 0.406954 0.553735
0.016373 0.413946 0.560447
0.000000 0.269955 0.439997
0.000000 0.276287 0.445836
0.000000 0.285866 0.454671
0.000000 0.295404 0.463467
0.000000 0.304942 0.472264
0.000000 0.311358 0.477907
0.000000 0.321203 0.485327
0.000000 0.331005 0.492715
0.000000 0.337554 0.497651
0.000000 0.347357 0.505040
0.000000 0.356658 0.512074
0.000000 0.362632 0.516604
0.000000 0.371574 0.523385
0.000000 0.380554 0.530195
0.000000 0.389496 0.536976
0.004682 0.396488 0.543688
0.011690 0.406954 0.553735
0.018699 0.417420 0.563782
0.025737 0.427930 0.573872
0.032142 0.434935 0.580560
0.059402 0.445550 0.590329
0.000000 0.298570 0.466387
0.000000 0.308149 0.475221
0.000000 0.314654 0.480391
0.000000 0.324456 0.487779
0.000000 0.334259 0.495168
0.000000 0.344103 0.502587
0.000000 0.350611 0.507492
0.000000 0.359664 0.514354
0.000000 0.368606 0.521135
0.000000 0.374580 0.525665
0.000000 0.383522 0.532446
0.002326 0.392970 0.540311
0.007008 0.399962 0.547023
0.014046 0.410472 0.557113
0.021055 0.420938 0.567160
0.028063 0.431404 0.577207
0.041190 0.438458 0.583803
0.068450 0.449073 0.593572
0.095825 0.459733 0.603382
0.113921 0.466780 0.609867
0.141296 0.477440 0.619678
0.000000 0.327710 0.490232
0.000000 0.337554 0.497651
0.000000 0.347357 0.505040
0.000000 0.353690 0.509823
0.000000 0.362632 0.516604
0.000000 0.371574 0.523385
0.000000 0.380554 0.530195
0.000000 0.386528 0.534725
0.004682 0.396488 0.543688
0.011690 0.406954 0.553735
0.016373 0.413946 0.560447
0.023381 0.424412 0.570494
0.032142 0.434935 0.580560
0.059402 0.445550 0.590329
0.077613 0.452641 0.596856
0.104873 0.463257 0.606625
0.132132 0.473872 0.616394
0.149634 0.481142 0.622722
0.172714 0.492884 0.631332
0.195697 0.504576 0.639905
0.211051 0.512387 0.645633
0.000000 0.359664 0.514354
0.000000 0.365638 0.518884
0.000000 0.374580 0.525665
0.000000 0.383522 0.532446
0.000000 0.389496 0.536976
0.007008 0.399962 0.547023
0.014046 0.410472 0.557113
0.018699 0.417420 0.563782
0.025737 0.427930 0.573872
0.041190 0.438458 0.583803
0.068450 0.449073 0.593572
0.086661 0.456165 0.600098
0.113921 0.466780 0.609867
0.141296 0.477440 0.619678
0.164988 0.488953 0.628450
0.180343 0.496765 0.634177
0.203325 0.508456 0.642751
0.226406 0.520198 0.651361
0.241662 0.527959 0.657052
0.259346 0.539104 0.665521
0.276457 0.550147 0.673941
0.000000 0.383522 0.532446
0.002326 0.392970 0.540311
0.009364 0.403480 0.550400
0.014046 0.410472 0.557113
0.021055 0.420938 0.567160
0.028063 0.431404 0.577207
0.050238 0.441981 0.587045
0.068450 0.449073 0.593572
0.095825 0.459733 0.603382
0.123084 0.470348 0.613151
0.141296 0.477440 0.619678
0.164988 0.488953 0.628450
0.187971 0.500645 0.637023
0.203325 0.508456 0.642751
0.226406 0.520198 0.651361
0.247914 0.531727 0.659896
0.265025 0.542770 0.668316
0.276457 0.550147 0.673941
0.293568 0.561190 0.682360
0.310752 0.572279 0.690816
0.322599 0.579373 0.696122
0.016373 0.413946 0.560447
0.023381 0.424412 0.570494
0.032142 0.434935 0.580560
0.059402 0.445550 0.590329
0.077613 0.452641 0.596856
0.104873 0.463257 0.606625
0.132132 0.473872 0.616394
0.149634 0.481142 0.622722
0.172714 0.492884 0.631332
0.195697 0.504576 0.639905
0.218679 0.516268 0.648479
0.234034 0.524079 0.654207
0.253593 0.535392 0.662691
0.270777 0.546482 0.671146
0.282136 0.553812 0.676735
0.299320 0.564902 0.685191
0.316431 0.575944 0.693610
0.335013 0.586274 0.701178
0.347427 0.593175 0.706234
0.366008 0.603505 0.713802
0.384669 0.613878 0.721401
0.068450 0.449073 0.593572
0.095825 0.459733 0.603382
0.113921 0.466780 0.609867
0.141296 0.477440 0.619678
0.164988 0.488953 0.628450
0.180343 0.496765 0.634177
0.203325 0.508456 0.642751
0.226406 0.520198 0.651361
0.241662 0.527959 0.657052
0.259346 0.539104 0.665521
0.276457 0.550147 0.673941
0.293568 0.561190 0.682360
0.305000 0.568567 0.687985
0.322599 0.579373 0.696122
0.341259 0.589747 0.703722
0.353673 0.596648 0.708778
0.372255 0.606977 0.716346
0.390836 0.617307 0.723913
0.407213 0.627877 0.732362
0.417660 0.634992 0.738204
0.433365 0.645687 0.746985
0.149634 0.481142 0.622722
0.172714 0.492884 0.631332
0.195697 0.504576 0.639905
0.211051 0.512387 0.645633
0.234034 0.524079 0.654207
0.253593 0.535392 0.662691
0.265025 0.542770 0.668316
0.282136 0.553812 0.676735
0.299320 0.564902 0.685191
0.310752 0.572279 0.690816
0.328845 0.582846 0.698666
0.347427 0.593175 0.706234
0.366008 0.603505 0.713802
0.378422 0.610406 0.718857
0.396832 0.620807 0.726557
0.412470 0.631457 0.735302
0.422917 0.638572 0.741144
0.438555 0.649222 0.749888
0.454193 0.659873 0.758632
0.464741 0.667313 0.764519
0.481055 0.679974 0.773572
0.218679 0.516268 0.648479
0.234034 0.524079 0.654207
0.253593 0.535392 0.662691
0.270777 0.546482 0.671146
0.282136 0.553812 0.676735
0.299320 0.564902 0.685191
0.316431 0.575944 0.693610
0.335013 0.586274 0.701178
0.347427 0.593175 0.706234
0.366008 0.603505 0.713802
0.384669 0.613878 0.721401
0.396832 0.620807 0.726557
0.412470 0.631457 0.735302
0.428108 0.642107 0.744046
0.443746 0.652757 0.752790
0.454193 0.659873 0.758632
0.470202 0.671551 0.767549
0.486446 0.684159 0.776564
0.502691 0.696767 0.785578
0.513543 0.705190 0.791601
0.529788 0.717798 0.800615
0.276457 0.550147 0.673941
0.293568 0.561190 0.682360
0.305000 0.568567 0.687985
0.322599 0.579373 0.696122
0.341259 0.589747 0.703722
0.359841 0.600076 0.711290
0.372255 0.606977 0.716346
0.390836 0.617307 0.723913
0.407213 0.627877 0.732362
0.417660 0.634992 0.738204
0.433365 0.645687 0.746985
0.449003 0.656338 0.755730
0.459450 0.663453 0.761572
0.475594 0.675736 0.770541
0.491838 0.688344 0.779556
0.508152 0.701005 0.788609
0.519004 0.709429 0.794631
0.535000 0.721840 0.803604
0.550257 0.733666 0.812452
0.560449 0.741566 0.818363
0.575705 0.753392 0.827211
0.328845 0.582846 0.698666
0.347427 0.593175 0.706234
0.366008 0.603505 0.713802
0.378422 0.610406 0.718857
0.396832 0.620807 0.726557
0.412470 0.631457 0.735302
0.428108 0.642107 0.744046
0.438555 0.649222 0.749888
0.454193 0.659873 0.758632
0.470202 0.671551 0.767549
0.481055 0.679974 0.773572
0.497299 0.692582 0.782586
0.513543 0.705190 0.791601
0.529788 0.717798 0.800615
0.540064 0.725765 0.806541
0.555385 0.737641 0.815426
0.570641 0.749467 0.824274
0.580834 0.757367 0.830185
0.596090 0.769193 0.839033
0.612797 0.774467 0.836363
0.623958 0.777990 0.834579
0.390836 0.617307 0.723913
0.402023 0.624342 0.729460
0.417660 0.634992 0.738204
0.433365 0.645687 0.746985
0.443746 0.652757 0.752790
0.459450 0.663453 0.761572
0.475594 0.675736 0.770541
0.486446 0.684159 0.776564
0.502691 0.696767 0.785578
0.519004 0.709429 0.794631
0.535000 0.721840 0.803604
0.545193 0.729741 0.809515
0.560449 0.741566 0.818363
0.575705 0.753392 0.827211
0.591026 0.765268 0.836096
0.601635 0.770943 0.838147
0.618413 0.776240 0.835466
0.635120 0.781514 0.832796
0.646282 0.785037 0.831012
0.662989 0.790311 0.828342
0.684118 0.799225 0.834223
0.433365 0.645687 0.746985
0.449003 0.656338 0.755730
0.464741 0.667313 0.764519
0.475594 0.675736 0.770541
0.491838 0.688344 0.779556
0.508152 0.701005 0.788609
0.519004 0.709429 0.794631
0.535000 0.721840 0.803604
0.550257 0.733666 0.812452
0.565513 0.745491 0.821300
0.575705 0.753392 0.827211
0.591026 0.765268 0.836096
0.607252 0.772716 0.837249
0.618413 0.776240 0.835466
0.635120 0.781514 0.832796
0.651827 0.786788 0.830126
0.662989 0.790311 0.828342
0.684118 0.799225 0.834223
0.706826 0.809402 0.843007
0.729437 0.819537 0.851754
0.744544 0.826307 0.857597
0.481055 0.679974 0.773572
0.497299 0.692582 0.782586
0.513543 0.705190 0.791601
0.529788 0.717798 0.800615
0.540064 0.725765 0.806541
0.555385 0.737641 0.815426
0.570641 0.749467 0.824274
0.580834 0.757367 0.830185
0.596090 0.769193 0.839033
0.612797 0.774467 0.836363
0.629575 0.779763 0.833682
0.640665 0.783264 0.831910
0.657443 0.788560 0.829228
0.676613 0.795861 0.831320
0.691719 0.802632 0.837163
0.714331 0.812766 0.845910
0.736942 0.822900 0.854657
0.759650 0.833078 0.863441
0.773958 0.839951 0.868910
0.794979 0.850290 0.876911
0.815999 0.860630 0.884912
0.000000 0.082425 0.241920
0.000000 0.091466 0.253234
0.000000 0.097480 0.260761
0.000000 0.106482 0.272027
0.000000 0.115484 0.283293
0.000000 0.123482 0.291862
0.000000 0.128600 0.296983
0.000000 0.136294 0.304681
0.000000 0.143956 0.312346
0.000000 0.149074 0.317467
0.000000 0.158614 0.328665
0.000000 0.168528 0.340565
0.000000 0.175151 0.348515
0.000000 0.185107 0.360466
0.000000 0.194758 0.371249
0.000000 0.203627 0.378696
0.000000 0.209552 0.383671
0.000000 0.218421 0.391118
0.000000 0.227328 0.398596
0.000000 0.233304 0.404046
0.000000 0.242477 0.413057
0.000000 0.109470 0.275766
0.000000 0.118396 0.286774
0.000000 0.126058 0.294439
0.000000 0.131176 0.299560
0.000000 0.138837 0.307225
0.000000 0.146499 0.314890
0.000000 0.155324 0.324715
0.000000 0.161947 0.332665
0.000000 0.171861 0.344565
0.000000 0.181774 0.356466
0.000000 0.188398 0.364416
0.000000 0.197702 0.373720
0.000000 0.206609 0.381199
0.000000 0.215478 0.388646
0.000000 0.221403 0.393621
0.000000 0.230272 0.401068
0.000000 0.239407 0.410040
0.000000 0.245509 0.416035
0.000000 0.254644 0.425007
0.000000 0.263818 0.434018
0.000000 0.269955 0.439997
0.000000 0.136294 0.304681
0.000000 0.141380 0.309769
0.000000 0.149074 0.317467
0.000000 0.158614 0.328665
0.000000 0.165237 0.336615
0.000000 0.175151 0.348515
0.000000 0.185107 0.360466
0.000000 0.191688 0.368366
0.000000 0.200684 0.376224
0.000000 0.209552 0.383671
0.000000 0.218421 0.391118
0.000000 0.224346 0.396093
0.000000 0.233304 0.404046
0.000000 0.242477 0.413057
0.000000 0.251612 0.422029
0.000000 0.257715 0.428023
0.000000 0.266850 0.436996
0.000000 0.276287 0.445836
0.000000 0.282659 0.451713
0.000000 0.292238 0.460547
0.000000 0.301776 0.469344
0.000000 0.158614 0.328665
0.000000 0.168528 0.340565
0.000000 0.178484 0.352516
0.000000 0.185107 0.360466
0.000000 0.194758 0.371249
0.000000 0.203627 0.378696
0.000000 0.209552 0.383671
0.000000 0.218421 0.391118
0.000000 0.227328 0.398596
0.000000 0.236375 0.407062
0.000000 0.242477 0.413057
0.000000 0.251612 0.422029
0.000000 0.260747 0.431001
0.000000 0.266850 0.436996
0.000000 0.276287 0.445836
0.000000 0.285866 0.454671
0.000000 0.292238 0.460547
0.000000 0.301776 0.469344
0.000000 0.311358 0.477907
0.000000 0.321203 0.485327
0.000000 0.327710 0.490232
0.000000 0.188398 0.364416
0.000000 0.197702 0.373720
0.000000 0.206609 0.381199
0.000000 0.212496 0.386143
0.000000 0.221403 0.393621
0.000000 0.230272 0.401068
0.000000 0.239407 0.410040
0.000000 0.245509 0.416035
0.000000 0.254644 0.425007
0.000000 0.263818 0.434018
0.000000 0.273121 0.442917
0.000000 0.279494 0.448794
0.000000 0.289032 0.457590
0.000000 0.298570 0.466387
0.000000 0.304942 0.472264
0.000000 0.314654 0.480391
0.000000 0.324456 0.487779
0.000000 0.334259 0.495168
0.000000 0.340808 0.500104
0.000000 0.350611 0.507492
0.000000 0.359664 0.514354
0.000000 0.218421 0.391118
0.000000 0.224346 0.396093
0.000000 0.233304 0.404046
0.000000 0.242477 0.413057
0.000000 0.251612 0.422029
0.000000 0.257715 0.428023
0.000000 0.266850 0.436996
0.000000 0.276287 0.445836
0.000000 0.282659 0.451713
0.000000 0.292238 0.460547
0.000000 0.301776 0.469344
0.000000 0.308149 0.475221
0.000000 0.317907 0.482843
0.000000 0.327710 0.490232
0.000000 0.337554 0.497651
0.000000 0.344103 0.502587
0.000000 0.353690 0.509823
0.000000 0.362632 0.516604
0.000000 0.371574 0.523385
0.000000 0.377548 0.527915
0.000000 0.386528 0.534725
0.000000 0.245509 0.416035
0.000000 0.254644 0.425007
0.000000 0.263818 0.434018
0.000000 0.269955 0.439997
0.000000 0.279494 0.448794
0.000000 0.289032 0.457590
0.000000 0.295404 0.463467
0.000000 0.304942 0.472264
0.000000 0.314654 0.480391
0.000000 0.321203 0.485327
0.000000 0.331005 0.492715
0.000000 0.340808 0.500104
0.000000 0.350611 0.507492
0.000000 0.356658 0.512074
0.000000 0.365638 0.518884
0.000000 0.374580 0.525665
0.000000 0.380554 0.530195
0.000000 0.389496 0.536976
0.007008 0.399962 0.547023
0.011690 0.406954 0.553735
0.018699 0.417420 0.563782
0.000000 0.273121 0.442917
0.000000 0.279494 0.448794
0.000000 0.289032 0.457590
0.000000 0.298570 0.466387
0.000000 0.304942 0.472264
0.000000 0.314654 0.480391
0.000000 0.324456 0.487779
0.000000 0.334259 0.495168
0.000000 0.340808 0.500104
0.000000 0.350611 0.507492
0.000000 0.359664 0.514354
0.000000 0.365638 0.518884
0.000000 0.374580 0.525665
0.000000 0.383522 0.532446
0.002326 0.392970 0.540311
0.007008 0.399962 0.547023
0.014046 0.410472 0.557113
0.021055 0.420938 0.567160
0.025737 0.427930 0.573872
0.041190 0.438458 0.583803
0.068450 0.449073 0.593572
0.000000 0.301776 0.469344
0.000000 0.311358 0.477907
0.000000 0.317907 0.482843
0.000000 0.327710 0.490232
0.000000 0.337554 0.497651
0.000000 0.347357 0.505040
0.000000 0.353690 0.509823
0.000000 0.362632 0.516604
0.000000 0.371574 0.523385
0.000000 0.377548 0.527915
0.000000 0.386528 0.534725
0.004682 0.396488 0.543688
0.009364 0.403480 0.550400
0.016373 0.413946 0.560447
0.023381 0.424412 0.570494
0.028063 0.431404 0.577207
0.050238 0.441981 0.587045
0.077613 0.452641 0.596856
0.104873 0.463257 0.606625
0.123084 0.470348 0.613151
0.149634 0.481142 0.622722
0.000000 0.331005 0.492715
0.000000 0.340808 0.500104
0.000000 0.350611 0.507492
0.000000 0.356658 0.512074
0.000000 0.365638 0.518884
0.000000 0.374580 0.525665
0.000000 0.383522 0.532446
0.000000 0.389496 0.536976
0.007008 0.399962 0.547023
0.014046 0.410472 0.557113
0.018699 0.417420 0.563782
0.025737 0.427930 0.573872
0.041190 0.438458 0.583803
0.059402 0.445550 0.590329
0.086661 0.456165 0.600098
0.113921 0.466780 0.609867
0.141296 0.477440 0.619678
0.157360 0.485073 0.625604
0.180343 0.496765 0.634177
0.203325 0.508456 0.642751
0.218679 0.516268 0.648479
0.000000 0.362632 0.516604
0.000000 0.368606 0.521135
0.000000 0.377548 0.527915
0.000000 0.386528 0.534725
0.002326 0.392970 0.540311
0.009364 0.403480 0.550400
0.016373 0.413946 0.560447
0.021055 0.420938 0.567160
0.028063 0.431404 0.577207
0.050238 0.441981 0.587045
0.077613 0.452641 0.596856
0.095825 0.459733 0.603382
0.123084 0.470348 0.613151
0.149634 0.481142 0.622722
0.172714 0.492884 0.631332
0.187971 0.500645 0.637023
0.211051 0.512387 0.645633
0.234034 0.524079 0.654207
0.247914 0.531727 0.659896
0.265025 0.542770 0.668316
0.282136 0.553812 0.676735
0.000000 0.386528 0.534725
0.004682 0.396488 0.543688
0.011690 0.406954 0.553735
0.016373 0.413946 0.560447
0.023381 0.424412 0.570494
0.032142 0.434935 0.580560
0.050238 0.441981 0.587045
0.077613 0.452641 0.596856
0.104873 0.463257 0.606625
0.132132 0.473872 0.616394
0.149634 0.481142 0.622722
0.172714 0.492884 0.631332
0.195697 0.504576 0.639905
0.211051 0.512387 0.645633
0.234034 0.524079 0.654207
0.253593 0.535392 0.662691
0.265025 0.542770 0.668316
0.282136 0.553812 0.676735
0.299320 0.564902 0.685191
0.316431 0.575944 0.693610
0.328845 0.582846 0.698666
0.018699 0.417420 0.563782
0.025737 0.427930 0.573872
0.041190 0.438458 0.583803
0.059402 0.445550 0.590329
0.086661 0.456165 0.600098
0.113921 0.466780 0.609867
0.141296 0.477440 0.619678
0.157360 0.485073 0.625604
0.180343 0.496765 0.634177
0.203325 0.508456 0.642751
0.226406 0.520198 0.651361
0.241662 0.527959 0.657052
0.259346 0.539104 0.665521
0.276457 0.550147 0.673941
0.287889 0.557524 0.679566
0.305000 0.568567 0.687985
0.322599 0.579373 0.696122
0.341259 0.589747 0.703722
0.353673 0.596648 0.708778
0.372255 0.606977 0.716346
0.390836 0.617307 0.723913
0.077613 0.452641 0.596856
0.095825 0.459733 0.603382
0.123084 0.470348 0.613151
0.149634 0.481142 0.622722
0.172714 0.492884 0.631332
0.187971 0.500645 0.637023
0.211051 0.512387 0.645633
0.234034 0.524079 0.654207
0.247914 0.531727 0.659896
0.265025 0.542770 0.668316
0.282136 0.553812 0.676735
0.293568 0.561190 0.682360
0.310752 0.572279 0.690816
0.328845 0.582846 0.698666
0.347427 0.593175 0.706234
0.359841 0.600076 0.711290
0.378422 0.610406 0.718857
0.396832 0.620807 0.726557
0.412470 0.631457 0.735302
0.422917 0.638572 0.741144
0.438555 0.649222 0.749888
0.157360 0.485073 0.625604
0.180343 0.496765 0.634177
0.203325 0.508456 0.642751
0.218679 0.516268 0.648479
0.241662 0.527959 0.657052
0.259346 0.539104 0.665521
0.270777 0.546482 0.671146
0.287889 0.557524 0.679566
0.305000 0.568567 0.687985
0.316431 0.575944 0.693610
0.335013 0.586274 0.701178
0.353673 0.596648 0.708778
0.372255 0.606977 0.716346
0.384669 0.613878 0.721401
0.402023 0.624342 0.729460
0.417660 0.634992 0.738204
0.428108 0.642107 0.744046
0.443746 0.652757 0.752790
0.459450 0.663453 0.761572
0.470202 0.671551 0.767549
0.486446 0.684159 0.776564
0.226406 0.520198 0.651361
0.241662 0.527959 0.657052
0.259346 0.539104 0.665521
0.276457 0.550147 0.673941
0.287889 0.557524 0.679566
0.305000 0.568567 0.687985
0.322599 0.579373 0.696122
0.335013 0.586274 0.701178
0.353673 0.596648 0.708778
0.372255 0.606977 0.716346
0.390836 0.617307 0.723913
0.402023 0.624342 0.729460
0.417660 0.634992 0.738204
0.433365 0.645687 0.746985
0.449003 0.656338 0.755730
0.459450 0.663453 0.761572
0.475594 0.675736 0.770541
0.491838 0.688344 0.779556
0.502691 0.696767 0.785578
0.519004 0.709429 0.794631
0.535000 0.721840 0.803604
0.282136 0.553812 0.676735
0.299320 0.564902 0.685191
0.310752 0.572279 0.690816
0.328845 0.582846 0.698666
0.347427 0.593175 0.706234
0.359841 0.600076 0.711290
0.378422 0.610406 0.718857
0.396832 0.620807 0.726557
0.412470 0.631457 0.735302
0.422917 0.638572 0.741144
0.438555 0.649222 0.749888
0.454193 0.659873 0.758632
0.464741 0.667313 0.764519
0.481055 0.679974 0.773572
0.497299 0.692582 0.782586
0.508152 0.701005 0.788609
0.524396 0.713613 0.797623
0.540064 0.725765 0.806541
0.555385 0.737641 0.815426
0.565513 0.745491 0.821300
0.580834 0.757367 0.830185
0.335013 0.586274 0.701178
0.353673 0.596648 0.708778
0.372255 0.606977 0.716346
0.384669 0.613878 0.721401
0.402023 0.624342 0.729460
0.417660 0.634992 0.738204
0.433365 0.645687 0.746985
0.443746 0.652757 0.752790
0.459450 0.663453 0.761572
0.475594 0.675736 0.770541
0.486446 0.684159 0.776564
0.502691 0.696767 0.785578
0.519004 0.709429 0.794631
0.529788 0.717798 0.800615
0.545193 0.729741 0.809515
0.560449 0.741566 0.818363
0.575705 0.753392 0.827211
0.585898 0.761292 0.833122
0.601635 0.770943 0.838147
0.618413 0.776240 0.835466
0.629575 0.779763 0.833682
0.390836 0.617307 0.723913
0.407213 0.627877 0.732362
0.422917 0.638572 0.741144
0.438555 0.649222 0.749888
0.449003 0.656338 0.755730
0.464741 0.667313 0.764519
0.481055 0.679974 0.773572
0.491838 0.688344 0.779556
0.508152 0.701005 0.788609
0.524396 0.713613 0.797623
0.540064 0.725765 0.806541
0.550257 0.733666 0.812452
0.565513 0.745491 0.821300
0.580834 0.757367 0.830185
0.596090 0.769193 0.839033
0.607252 0.772716 0.837249
0.623958 0.777990 0.834579
0.640665 0.783264 0.831910
0.651827 0.786788 0.830126
0.669108 0.792498 0.828416
0.691719 0.802632 0.837163
0.438555 0.649222 0.749888
0.454193 0.659873 0.758632
0.470202 0.671551 0.767549
0.481055 0.679974 0.773572
0.497299 0.692582 0.782586
0.513543 0.705190 0.791601
0.524396 0.713613 0.797623
0.540064 0.725765 0.806541
0.555385 0.737641 0.815426
0.570641 0.749467 0.824274
0.580834 0.757367 0.830185
0.596090 0.769193 0.839033
0.612797 0.774467 0.836363
0.623958 0.777990 0.834579
0.640665 0.783264 0.831910
0.657443 0.788560 0.829228
0.669108 0.792498 0.828416
0.691719 0.802632 0.837163
0.714331 0.812766 0.845910
0.729437 0.819537 0.851754
0.752049 0.829671 0.860500
0.486446 0.684159 0.776564
0.502691 0.696767 0.785578
0.519004 0.709429 0.794631
0.529788 0.717798 0.800615
0.545193 0.729741 0.809515
0.560449 0.741566 0.818363
0.575705 0.753392 0.827211
0.585898 0.761292 0.833122
0.601635 0.770943 0.838147
0.618413 0.776240 0.835466
0.635120 0.781514 0.832796
0.646282 0.785037 0.831012
0.662989 0.790311 0.828342
0.684118 0.799225 0.834223
0.699224 0.805996 0.840066
0.721932 0.816173 0.848850
0.744544 0.826307 0.857597
0.759650 0.833078 0.863441
0.780935 0.843383 0.871565
0.801956 0.853722 0.879566
0.823066 0.864105 0.887601
0.000000 0.085452 0.245707
