profils/20230909_cyanotype_3min/profils/LUT3Dscreen_cyano_3min.cube
#Created by: Easy Digital Negatives
TITLE  "Easy Digital Negatives"
LUT_3D_SIZE 6
DOMAIN_MIN 0.0 0.0 0.0
DOMAIN_MAX 1.0 1.0 1.0
#LUT data points
0.000000 0.079438 0.238181
0.000000 0.112496 0.279553
0.000000 0.141380 0.309769
0.000000 0.175151 0.348515
0.000000 0.206609 0.381199
0.000000 0.239407 0.410040
0.000000 0.185107 0.360466
0.000000 0.218421 0.391118
0.000000 0.251612 0.422029
0.000000 0.285866 0.454671
0.000000 0.321203 0.485327
0.000000 0.356658 0.512074
0.000000 0.298570 0.466387
0.000000 0.334259 0.495168
0.000000 0.368606 0.521135
0.007008 0.399962 0.547023
0.041190 0.438458 0.583803
0.141296 0.477440 0.619678
0.016373 0.413946 0.560447
0.077613 0.452641 0.596856
0.172714 0.492884 0.631332
0.253593 0.535392 0.662691
0.316431 0.575944 0.693610
0.384669 0.613878 0.721401
0.276457 0.550147 0.673941
0.341259 0.589747 0.703722
0.407213 0.627877 0.732362
0.459450 0.663453 0.761572
0.519004 0.709429 0.794631
0.575705 0.753392 0.827211
0.481055 0.679974 0.773572
0.540064 0.725765 0.806541
0.596090 0.769193 0.839033
0.657443 0.788560 0.829228
0.736942 0.822900 0.854657
0.815999 0.860630 0.884912
0.000000 0.091466 0.253234
0.000000 0.123482 0.291862
0.000000 0.149074 0.317467
0.000000 0.185107 0.360466
0.000000 0.218421 0.391118
0.000000 0.251612 0.422029
0.000000 0.197702 0.373720
0.000000 0.230272 0.401068
0.000000 0.263818 0.434018
0.000000 0.298570 0.466387
0.000000 0.334259 0.495168
0.000000 0.365638 0.518884
0.000000 0.311358 0.477907
0.000000 0.344103 0.502587
0.000000 0.377548 0.527915
0.016373 0.413946 0.560447
0.077613 0.452641 0.596856
0.172714 0.492884 0.631332
0.025737 0.427930 0.573872
0.113921 0.466780 0.609867
0.203325 0.508456 0.642751
0.276457 0.550147 0.673941
0.335013 0.586274 0.701178
0.402023 0.624342 0.729460
0.299320 0.564902 0.685191
0.359841 0.600076 0.711290
0.422917 0.638572 0.741144
0.481055 0.679974 0.773572
0.540064 0.725765 0.806541
0.596090 0.769193 0.839033
0.502691 0.696767 0.785578
0.560449 0.741566 0.818363
0.618413 0.776240 0.835466
0.684118 0.799225 0.834223
0.759650 0.833078 0.863441
0.837110 0.871013 0.892947
0.000000 0.100468 0.264500
0.000000 0.131176 0.299560
0.000000 0.161947 0.332665
0.000000 0.197702 0.373720
0.000000 0.230272 0.401068
0.000000 0.263818 0.434018
0.000000 0.209552 0.383671
0.000000 0.242477 0.413057
0.000000 0.276287 0.445836
0.000000 0.308149 0.475221
0.000000 0.344103 0.502587
0.000000 0.377548 0.527915
0.000000 0.321203 0.485327
0.000000 0.356658 0.512074
0.000000 0.389496 0.536976
0.025737 0.427930 0.573872
0.113921 0.466780 0.609867
0.203325 0.508456 0.642751
0.050238 0.441981 0.587045
0.149634 0.481142 0.622722
0.226406 0.520198 0.651361
0.293568 0.561190 0.682360
0.359841 0.600076 0.711290
0.422917 0.638572 0.741144
0.316431 0.575944 0.693610
0.384669 0.613878 0.721401
0.443746 0.652757 0.752790
0.502691 0.696767 0.785578
0.560449 0.741566 0.818363
0.612797 0.774467 0.836363
0.524396 0.713613 0.797623
0.580834 0.757367 0.830185
0.635120 0.781514 0.832796
0.706826 0.809402 0.843007
0.788002 0.846859 0.874255
0.862718 0.885072 0.902490
0.000000 0.112496 0.279553
0.000000 0.141380 0.309769
0.000000 0.175151 0.348515
0.000000 0.209552 0.383671
0.000000 0.239407 0.410040
0.000000 0.273121 0.442917
0.000000 0.221403 0.393621
0.000000 0.251612 0.422029
0.000000 0.285866 0.454671
0.000000 0.321203 0.485327
0.000000 0.356658 0.512074
0.000000 0.389496 0.536976
0.000000 0.334259 0.495168
0.000000 0.368606 0.521135
0.009364 0.403480 0.550400
0.050238 0.441981 0.587045
0.141296 0.477440 0.619678
0.226406 0.520198 0.651361
0.077613 0.452641 0.596856
0.172714 0.492884 0.631332
0.253593 0.535392 0.662691
0.316431 0.575944 0.693610
0.384669 0.613878 0.721401
0.443746 0.652757 0.752790
0.341259 0.589747 0.703722
0.407213 0.627877 0.732362
0.464741 0.667313 0.764519
0.519004 0.709429 0.794631
0.575705 0.753392 0.827211
0.635120 0.781514 0.832796
0.540064 0.725765 0.806541
0.596090 0.769193 0.839033
0.657443 0.788560 0.829228
0.736942 0.822900 0.854657
0.815999 0.860630 0.884912
0.885328 0.899549 0.910629
0.000000 0.123482 0.291862
0.000000 0.151991 0.320714
0.000000 0.185107 0.360466
0.000000 0.218421 0.391118
0.000000 0.251612 0.422029
0.000000 0.285866 0.454671
0.000000 0.230272 0.401068
0.000000 0.263818 0.434018
0.000000 0.298570 0.466387
0.000000 0.334259 0.495168
0.000000 0.368606 0.521135
0.007008 0.399962 0.547023
0.000000 0.347357 0.505040
0.000000 0.380554 0.530195
0.016373 0.413946 0.560447
0.077613 0.452641 0.596856
0.172714 0.492884 0.631332
0.253593 0.535392 0.662691
0.113921 0.466780 0.609867
0.203325 0.508456 0.642751
0.276457 0.550147 0.673941
0.341259 0.589747 0.703722
0.407213 0.627877 0.732362
0.459450 0.663453 0.761572
0.366008 0.603505 0.713802
0.422917 0.638572 0.741144
0.481055 0.679974 0.773572
0.540064 0.725765 0.806541
0.596090 0.769193 0.839033
0.657443 0.788560 0.829228
0.560449 0.741566 0.818363
0.618413 0.776240 0.835466
0.684118 0.799225 0.834223
0.766891 0.836476 0.866220
0.837110 0.871013 0.892947
0.902250 0.910384 0.916721
0.000000 0.131176 0.299560
0.000000 0.161947 0.332665
0.000000 0.197702 0.373720
0.000000 0.230272 0.401068
0.000000 0.263818 0.434018
0.000000 0.298570 0.466387
0.000000 0.242477 0.413057
0.000000 0.276287 0.445836
0.000000 0.311358 0.477907
0.000000 0.344103 0.502587
0.000000 0.377548 0.527915
0.016373 0.413946 0.560447
0.000000 0.356658 0.512074
0.000000 0.389496 0.536976
0.025737 0.427930 0.573872
0.113921 0.466780 0.609867
0.203325 0.508456 0.642751
0.276457 0.550147 0.673941
0.149634 0.481142 0.622722
0.234034 0.524079 0.654207
0.299320 0.564902 0.685191
0.359841 0.600076 0.711290
0.422917 0.638572 0.741144
0.481055 0.679974 0.773572
0.384669 0.613878 0.721401
0.443746 0.652757 0.752790
0.502691 0.696767 0.785578
0.560449 0.741566 0.818363
0.618413 0.776240 0.835466
0.684118 0.799225 0.834223
0.580834 0.757367 0.830185
0.640665 0.783264 0.831910
0.706826 0.809402 0.843007
0.788002 0.846859 0.874255
0.862718 0.885072 0.902490
0.924860 0.924860 0.924860
