profils/20230909_vandyke_4min/profil/LUT3Dscreen_vandyke_4min.cube
#Created by: Easy Digital Negatives
TITLE  "Easy Digital Negatives"
LUT_3D_SIZE 6
DOMAIN_MIN 0.0 0.0 0.0
DOMAIN_MAX 1.0 1.0 1.0
#LUT data points
0.057060 0.034279 0.000000
0.089458 0.074618 0.029602
0.123175 0.108044 0.066239
0.156966 0.138094 0.095113
0.189331 0.164257 0.116557
0.226254 0.193821 0.141399
0.166178 0.146041 0.101840
0.202994 0.174570 0.124697
0.239019 0.205721 0.152804
0.276354 0.238547 0.181433
0.315712 0.272238 0.208751
0.352123 0.307486 0.241526
0.290789 0.250502 0.190738
0.329643 0.285023 0.219948
0.361618 0.320397 0.257203
0.389306 0.353523 0.293887
0.430008 0.392399 0.328299
0.470609 0.432228 0.365442
0.404120 0.367624 0.306280
0.444780 0.406891 0.341813
0.489077 0.450544 0.383264
0.541099 0.501955 0.433551
0.592573 0.551522 0.482222
0.623808 0.579078 0.506307
0.559828 0.519989 0.451260
0.603938 0.561548 0.490985
0.634779 0.589222 0.516081
0.661591 0.614956 0.542620
0.704381 0.662800 0.595275
0.746568 0.709311 0.648817
0.676759 0.631775 0.561071
0.719893 0.680048 0.614743
0.761825 0.726048 0.668305
0.776588 0.751430 0.703907
0.824604 0.807320 0.764574
0.874402 0.861867 0.832767
0.068848 0.048957 0.010770
0.101537 0.087582 0.042054
0.132477 0.116840 0.076635
0.166178 0.146041 0.101840
0.202994 0.174570 0.124697
0.239019 0.205721 0.152804
0.179029 0.156481 0.110420
0.216701 0.184916 0.132863
0.251784 0.217620 0.164209
0.290789 0.250502 0.190738
0.329643 0.285023 0.219948
0.359260 0.317190 0.253309
0.305208 0.262597 0.200308
0.340147 0.294663 0.228390
0.368724 0.330059 0.268935
0.404120 0.367624 0.306280
0.444780 0.406891 0.341813
0.489077 0.450544 0.383264
0.418934 0.381725 0.318673
0.459506 0.421336 0.355285
0.508008 0.469342 0.401638
0.559828 0.519989 0.451260
0.601078 0.559025 0.488781
0.632114 0.586665 0.513444
0.578556 0.538024 0.468969
0.612443 0.569052 0.497544
0.642840 0.596959 0.524060
0.676759 0.631775 0.561071
0.719893 0.680048 0.614743
0.761825 0.726048 0.668305
0.692507 0.649463 0.580572
0.735150 0.696785 0.634232
0.767197 0.735283 0.681259
0.790019 0.768049 0.722914
0.839471 0.824201 0.782482
0.887436 0.875864 0.851762
0.077670 0.059941 0.018831
0.110839 0.096378 0.052450
0.144748 0.127554 0.086192
0.179029 0.156481 0.110420
0.216701 0.184916 0.132863
0.251784 0.217620 0.164209
0.192736 0.166827 0.118586
0.229466 0.196815 0.144268
0.265470 0.229534 0.174418
0.301674 0.259515 0.197754
0.340147 0.294663 0.228390
0.368724 0.330059 0.268935
0.315712 0.272238 0.208751
0.352123 0.307486 0.241526
0.378219 0.342970 0.284612
0.418934 0.381725 0.318673
0.459506 0.421336 0.355285
0.508008 0.469342 0.401638
0.433677 0.395999 0.331656
0.474802 0.436370 0.369410
0.522282 0.483516 0.415492
0.573844 0.533487 0.464513
0.612443 0.569052 0.497544
0.642840 0.596959 0.524060
0.592573 0.551522 0.482222
0.623808 0.579078 0.506307
0.653530 0.607219 0.534641
0.692507 0.649463 0.580572
0.735150 0.696785 0.634232
0.765845 0.732960 0.678000
0.708305 0.667208 0.600135
0.750407 0.713522 0.653720
0.771217 0.742195 0.690954
0.804886 0.784930 0.740823
0.857115 0.843302 0.807575
0.903420 0.894053 0.876469
0.089458 0.074618 0.029602
0.123175 0.108044 0.066239
0.156966 0.138094 0.095113
0.192736 0.166827 0.118586
0.226254 0.193821 0.141399
0.261873 0.226555 0.172099
0.206443 0.177173 0.126752
0.239019 0.205721 0.152804
0.276354 0.238547 0.181433
0.315712 0.272238 0.208751
0.352123 0.307486 0.241526
0.378219 0.342970 0.284612
0.329643 0.285023 0.219948
0.361618 0.320397 0.257203
0.393033 0.357071 0.297005
0.433677 0.395999 0.331656
0.470609 0.432228 0.365442
0.522282 0.483516 0.415492
0.444780 0.406891 0.341813
0.489077 0.450544 0.383264
0.541099 0.501955 0.433551
0.592573 0.551522 0.482222
0.623808 0.579078 0.506307
0.653530 0.607219 0.534641
0.603938 0.561548 0.490985
0.634779 0.589222 0.516081
0.664886 0.618438 0.546368
0.704381 0.662800 0.595275
0.746568 0.709311 0.648817
0.771217 0.742195 0.690954
0.719893 0.680048 0.614743
0.761825 0.726048 0.668305
0.776588 0.751430 0.703907
0.824604 0.807320 0.764574
0.874402 0.861867 0.832767
0.917775 0.911816 0.900630
0.101537 0.087582 0.042054
0.135536 0.119606 0.079465
0.166178 0.146041 0.101840
0.202994 0.174570 0.124697
0.239019 0.205721 0.152804
0.276354 0.238547 0.181433
0.216701 0.184916 0.132863
0.251784 0.217620 0.164209
0.290789 0.250502 0.190738
0.329643 0.285023 0.219948
0.361618 0.320397 0.257203
0.389306 0.353523 0.293887
0.343619 0.297849 0.231181
0.371113 0.333308 0.272879
0.404120 0.367624 0.306280
0.444780 0.406891 0.341813
0.489077 0.450544 0.383264
0.541099 0.501955 0.433551
0.459506 0.421336 0.355285
0.508008 0.469342 0.401638
0.559828 0.519989 0.451260
0.603938 0.561548 0.490985
0.634779 0.589222 0.516081
0.661591 0.614956 0.542620
0.615267 0.571542 0.499721
0.642840 0.596959 0.524060
0.676759 0.631775 0.561071
0.719893 0.680048 0.614743
0.761825 0.726048 0.668305
0.776588 0.751430 0.703907
0.735150 0.696785 0.634232
0.767197 0.735283 0.681259
0.790019 0.768049 0.722914
0.844081 0.829304 0.788580
0.887436 0.875864 0.851762
0.928518 0.925110 0.918712
0.110839 0.096378 0.052450
0.144748 0.127554 0.086192
0.179029 0.156481 0.110420
0.216701 0.184916 0.132863
0.251784 0.217620 0.164209
0.290789 0.250502 0.190738
0.229466 0.196815 0.144268
0.265470 0.229534 0.174418
0.305208 0.262597 0.200308
0.340147 0.294663 0.228390
0.368724 0.330059 0.268935
0.404120 0.367624 0.306280
0.352123 0.307486 0.241526
0.378219 0.342970 0.284612
0.418934 0.381725 0.318673
0.459506 0.421336 0.355285
0.508008 0.469342 0.401638
0.559828 0.519989 0.451260
0.474802 0.436370 0.369410
0.527000 0.488200 0.420071
0.578556 0.538024 0.468969
0.612443 0.569052 0.497544
0.642840 0.596959 0.524060
0.676759 0.631775 0.561071
0.623808 0.579078 0.506307
0.653530 0.607219 0.534641
0.692507 0.649463 0.580572
0.735150 0.696785 0.634232
0.767197 0.735283 0.681259
0.790019 0.768049 0.722914
0.750407 0.713522 0.653720
0.772551 0.744489 0.694172
0.804886 0.784930 0.740823
0.857115 0.843302 0.807575
0.903420 0.894053 0.876469
0.942873 0.942873 0.942873
