profils/20230909_vandyke_4min/profil/LUT3Dscreen_vandyke_4min.cube
#Created by: Easy Digital Negatives
TITLE  "Easy Digital Negatives"
LUT_3D_SIZE 21
DOMAIN_MIN 0.0 0.0 0.0
DOMAIN_MAX 1.0 1.0 1.0
#LUT data points
0.057060 0.034279 0.000000
0.065882 0.045264 0.008061
0.074742 0.056295 0.016156
0.080598 0.063587 0.021507
0.089458 0.074618 0.029602
0.098463 0.084675 0.038618
0.104651 0.090526 0.045534
0.113913 0.099285 0.055886
0.123175 0.108044 0.066239
0.129363 0.113895 0.073155
0.138620 0.122267 0.081716
0.147793 0.130180 0.088415
0.156966 0.138094 0.095113
0.163094 0.143381 0.099588
0.172267 0.151294 0.106287
0.182477 0.159084 0.112474
0.189331 0.164257 0.116557
0.199589 0.172000 0.122669
0.209848 0.179743 0.128780
0.216701 0.184916 0.132863
0.226254 0.193821 0.141399
0.083564 0.067280 0.024216
0.092386 0.078264 0.032277
0.101537 0.087582 0.042054
0.107725 0.093433 0.048970
0.117027 0.102229 0.059367
0.126289 0.110988 0.069719
0.135536 0.119606 0.079465
0.141665 0.124893 0.083940
0.150838 0.132807 0.090638
0.160050 0.140754 0.097365
0.169223 0.148667 0.104063
0.175624 0.153911 0.108391
0.185882 0.161654 0.114503
0.196141 0.169397 0.120614
0.202994 0.174570 0.124697
0.213296 0.182346 0.130835
0.223083 0.190865 0.138566
0.229466 0.196815 0.144268
0.239019 0.205721 0.152804
0.248572 0.214627 0.161340
0.254954 0.220576 0.167042
0.113913 0.099285 0.055886
0.120101 0.105136 0.062803
0.129363 0.113895 0.073155
0.138620 0.122267 0.081716
0.144748 0.127554 0.086192
0.153921 0.135467 0.092890
0.163094 0.143381 0.099588
0.172267 0.151294 0.106287
0.179029 0.156481 0.110420
0.189331 0.164257 0.116557
0.199589 0.172000 0.122669
0.206443 0.177173 0.126752
0.216701 0.184916 0.132863
0.226254 0.193821 0.141399
0.235848 0.202765 0.149971
0.242190 0.208677 0.155637
0.251784 0.217620 0.164209
0.261873 0.226555 0.172099
0.269113 0.232551 0.176766
0.279951 0.241526 0.183752
0.290789 0.250502 0.190738
0.138620 0.122267 0.081716
0.147793 0.130180 0.088415
0.156966 0.138094 0.095113
0.163094 0.143381 0.099588
0.172267 0.151294 0.106287
0.182477 0.159084 0.112474
0.192736 0.166827 0.118586
0.199589 0.172000 0.122669
0.209848 0.179743 0.128780
0.219872 0.187872 0.135696
0.226254 0.193821 0.141399
0.235848 0.202765 0.149971
0.245401 0.211671 0.158507
0.251784 0.217620 0.164209
0.261873 0.226555 0.172099
0.272711 0.235530 0.179085
0.283595 0.244544 0.186100
0.290789 0.250502 0.190738
0.301674 0.259515 0.197754
0.312196 0.269011 0.205925
0.319184 0.275424 0.211541
0.166178 0.146041 0.101840
0.175624 0.153911 0.108391
0.185882 0.161654 0.114503
0.196141 0.169397 0.120614
0.202994 0.174570 0.124697
0.213296 0.182346 0.130835
0.223083 0.190865 0.138566
0.229466 0.196815 0.144268
0.239019 0.205721 0.152804
0.248572 0.214627 0.161340
0.258275 0.223576 0.169780
0.265470 0.229534 0.174418
0.276354 0.238547 0.181433
0.287192 0.247523 0.188419
0.298030 0.256498 0.195405
0.305208 0.262597 0.200308
0.315712 0.272238 0.208751
0.326172 0.281837 0.217158
0.333159 0.288250 0.222774
0.343619 0.297849 0.231181
0.352123 0.307486 0.241526
0.199589 0.172000 0.122669
0.209848 0.179743 0.128780
0.216701 0.184916 0.132863
0.226254 0.193821 0.141399
0.235848 0.202765 0.149971
0.242190 0.208677 0.155637
0.251784 0.217620 0.164209
0.261873 0.226555 0.172099
0.269113 0.232551 0.176766
0.279951 0.241526 0.183752
0.290789 0.250502 0.190738
0.301674 0.259515 0.197754
0.308724 0.265824 0.203134
0.319184 0.275424 0.211541
0.329643 0.285023 0.219948
0.336631 0.291436 0.225564
0.347091 0.301036 0.233971
0.354512 0.310734 0.245470
0.361618 0.320397 0.257203
0.366366 0.326852 0.265041
0.373472 0.336515 0.276773
0.229466 0.196815 0.144268
0.239019 0.205721 0.152804
0.248572 0.214627 0.161340
0.254954 0.220576 0.167042
0.265470 0.229534 0.174418
0.276354 0.238547 0.181433
0.283595 0.244544 0.186100
0.294433 0.253519 0.193086
0.305208 0.262597 0.200308
0.315712 0.272238 0.208751
0.322655 0.278610 0.214331
0.333159 0.288250 0.222774
0.343619 0.297849 0.231181
0.349765 0.304279 0.237632
0.356871 0.313941 0.249365
0.363977 0.323604 0.261097
0.368724 0.330059 0.268935
0.375860 0.339763 0.280718
0.385626 0.350021 0.290808
0.396713 0.360574 0.300084
0.404120 0.367624 0.306280
0.258275 0.223576 0.169780
0.265470 0.229534 0.174418
0.276354 0.238547 0.181433
0.287192 0.247523 0.188419
0.298030 0.256498 0.195405
0.305208 0.262597 0.200308
0.315712 0.272238 0.208751
0.326172 0.281837 0.217158
0.333159 0.288250 0.222774
0.343619 0.297849 0.231181
0.352123 0.307486 0.241526
0.356871 0.313941 0.249365
0.363977 0.323604 0.261097
0.371113 0.333308 0.272879
0.378219 0.342970 0.284612
0.385626 0.350021 0.290808
0.396713 0.360574 0.300084
0.407800 0.371127 0.309359
0.418934 0.381725 0.318673
0.426338 0.388800 0.324942
0.437394 0.399645 0.335056
0.290789 0.250502 0.190738
0.301674 0.259515 0.197754
0.308724 0.265824 0.203134
0.319184 0.275424 0.211541
0.329643 0.285023 0.219948
0.340147 0.294663 0.228390
0.347091 0.301036 0.233971
0.354512 0.310734 0.245470
0.361618 0.320397 0.257203
0.366366 0.326852 0.265041
0.373472 0.336515 0.276773
0.381899 0.346473 0.287690
0.389306 0.353523 0.293887
0.400440 0.364121 0.303202
0.411527 0.374674 0.312477
0.422614 0.385227 0.321752
0.430008 0.392399 0.328299
0.441064 0.403245 0.338413
0.452167 0.414137 0.348570
0.459506 0.421336 0.355285
0.470609 0.432228 0.365442
0.322655 0.278610 0.214331
0.333159 0.288250 0.222774
0.343619 0.297849 0.231181
0.349765 0.304279 0.237632
0.356871 0.313941 0.249365
0.363977 0.323604 0.261097
0.371113 0.333308 0.272879
0.375860 0.339763 0.280718
0.385626 0.350021 0.290808
0.396713 0.360574 0.300084
0.404120 0.367624 0.306280
0.415207 0.378177 0.315555
0.426338 0.388800 0.324942
0.437394 0.399645 0.335056
0.444780 0.406891 0.341813
0.455836 0.417736 0.351928
0.466892 0.428582 0.362042
0.474802 0.436370 0.369410
0.489077 0.450544 0.383264
0.503290 0.464657 0.397059
0.512786 0.474086 0.406276
0.354512 0.310734 0.245470
0.359260 0.317190 0.253309
0.366366 0.326852 0.265041
0.373472 0.336515 0.276773
0.378219 0.342970 0.284612
0.389306 0.353523 0.293887
0.400440 0.364121 0.303202
0.407800 0.371127 0.309359
0.418934 0.381725 0.318673
0.430008 0.392399 0.328299
0.441064 0.403245 0.338413
0.448450 0.410491 0.345170
0.459506 0.421336 0.355285
0.470609 0.432228 0.365442
0.484298 0.445799 0.378626
0.493794 0.455228 0.387843
0.508008 0.469342 0.401638
0.522282 0.483516 0.415492
0.531718 0.492885 0.424650
0.545811 0.506492 0.438006
0.559828 0.519989 0.451260
0.373472 0.336515 0.276773
0.381899 0.346473 0.287690
0.393033 0.357071 0.297005
0.400440 0.364121 0.303202
0.411527 0.374674 0.312477
0.422614 0.385227 0.321752
0.433677 0.395999 0.331656
0.441064 0.403245 0.338413
0.452167 0.414137 0.348570
0.463222 0.424982 0.358685
0.470609 0.432228 0.365442
0.484298 0.445799 0.378626
0.498512 0.459913 0.392422
0.508008 0.469342 0.401638
0.522282 0.483516 0.415492
0.536447 0.497475 0.429151
0.550463 0.510972 0.442405
0.559828 0.519989 0.451260
0.573844 0.533487 0.464513
0.587920 0.547042 0.477823
0.595396 0.554012 0.484399
0.404120 0.367624 0.306280
0.415207 0.378177 0.315555
0.426338 0.388800 0.324942
0.437394 0.399645 0.335056
0.444780 0.406891 0.341813
0.455836 0.417736 0.351928
0.466892 0.428582 0.362042
0.474802 0.436370 0.369410
0.489077 0.450544 0.383264
0.503290 0.464657 0.397059
0.517504 0.478771 0.410855
0.527000 0.488200 0.420071
0.541099 0.501955 0.433551
0.555175 0.515509 0.446860
0.564480 0.524469 0.455659
0.578556 0.538024 0.468969
0.592573 0.551522 0.482222
0.601078 0.559025 0.488781
0.606761 0.564038 0.493162
0.615267 0.571542 0.499721
0.623808 0.579078 0.506307
0.441064 0.403245 0.338413
0.452167 0.414137 0.348570
0.459506 0.421336 0.355285
0.470609 0.432228 0.365442
0.484298 0.445799 0.378626
0.493794 0.455228 0.387843
0.508008 0.469342 0.401638
0.522282 0.483516 0.415492
0.531718 0.492885 0.424650
0.545811 0.506492 0.438006
0.559828 0.519989 0.451260
0.573844 0.533487 0.464513
0.583209 0.542504 0.473368
0.595396 0.554012 0.484399
0.603938 0.561548 0.490985
0.609620 0.566561 0.495367
0.618126 0.574065 0.501926
0.626632 0.581568 0.508484
0.634779 0.589222 0.516081
0.640141 0.594369 0.521389
0.648202 0.602105 0.529367
0.474802 0.436370 0.369410
0.489077 0.450544 0.383264
0.503290 0.464657 0.397059
0.512786 0.474086 0.406276
0.527000 0.488200 0.420071
0.541099 0.501955 0.433551
0.550463 0.510972 0.442405
0.564480 0.524469 0.455659
0.578556 0.538024 0.468969
0.587920 0.547042 0.477823
0.598255 0.556535 0.486604
0.606761 0.564038 0.493162
0.615267 0.571542 0.499721
0.620949 0.576555 0.504103
0.629450 0.584108 0.510807
0.637477 0.591812 0.518752
0.642840 0.596959 0.524060
0.650866 0.604662 0.532004
0.658893 0.612366 0.539949
0.664886 0.618438 0.546368
0.676759 0.631775 0.561071
0.517504 0.478771 0.410855
0.527000 0.488200 0.420071
0.541099 0.501955 0.433551
0.555175 0.515509 0.446860
0.564480 0.524469 0.455659
0.578556 0.538024 0.468969
0.592573 0.551522 0.482222
0.601078 0.559025 0.488781
0.606761 0.564038 0.493162
0.615267 0.571542 0.499721
0.623808 0.579078 0.506307
0.629450 0.584108 0.510807
0.637477 0.591812 0.518752
0.645504 0.599516 0.526696
0.653530 0.607219 0.534641
0.658893 0.612366 0.539949
0.668860 0.622903 0.551290
0.680684 0.636183 0.565931
0.692507 0.649463 0.580572
0.700406 0.658335 0.590353
0.712230 0.671616 0.604994
0.559828 0.519989 0.451260
0.573844 0.533487 0.464513
0.583209 0.542504 0.473368
0.595396 0.554012 0.484399
0.603938 0.561548 0.490985
0.612443 0.569052 0.497544
0.618126 0.574065 0.501926
0.626632 0.581568 0.508484
0.634779 0.589222 0.516081
0.640141 0.594369 0.521389
0.648202 0.602105 0.529367
0.656229 0.609809 0.537312
0.661591 0.614956 0.542620
0.672785 0.627311 0.556149
0.684608 0.640591 0.570791
0.696482 0.653928 0.585494
0.704381 0.662800 0.595275
0.716103 0.675891 0.609902
0.727521 0.688417 0.624488
0.735150 0.696785 0.634232
0.746568 0.709311 0.648817
0.598255 0.556535 0.486604
0.606761 0.564038 0.493162
0.615267 0.571542 0.499721
0.620949 0.576555 0.504103
0.629450 0.584108 0.510807
0.637477 0.591812 0.518752
0.645504 0.599516 0.526696
0.650866 0.604662 0.532004
0.658893 0.612366 0.539949
0.668860 0.622903 0.551290
0.676759 0.631775 0.561071
0.688583 0.645055 0.575712
0.700406 0.658335 0.590353
0.712230 0.671616 0.604994
0.719893 0.680048 0.614743
0.731360 0.692628 0.629391
0.742778 0.705154 0.643976
0.750407 0.713522 0.653720
0.761825 0.726048 0.668305
0.765845 0.732960 0.678000
0.768531 0.737577 0.684477
0.626632 0.581568 0.508484
0.632114 0.586665 0.513444
0.640141 0.594369 0.521389
0.648202 0.602105 0.529367
0.653530 0.607219 0.534641
0.661591 0.614956 0.542620
0.672785 0.627311 0.556149
0.680684 0.636183 0.565931
0.692507 0.649463 0.580572
0.704381 0.662800 0.595275
0.716103 0.675891 0.609902
0.723731 0.684259 0.619647
0.735150 0.696785 0.634232
0.746568 0.709311 0.648817
0.758035 0.721891 0.663464
0.763160 0.728342 0.671523
0.767197 0.735283 0.681259
0.771217 0.742195 0.690954
0.773903 0.746813 0.697431
0.777923 0.753724 0.707125
0.790019 0.768049 0.722914
0.648202 0.602105 0.529367
0.656229 0.609809 0.537312
0.664886 0.618438 0.546368
0.672785 0.627311 0.556149
0.684608 0.640591 0.570791
0.696482 0.653928 0.585494
0.704381 0.662800 0.595275
0.716103 0.675891 0.609902
0.727521 0.688417 0.624488
0.738940 0.700943 0.639073
0.746568 0.709311 0.648817
0.758035 0.721891 0.663464
0.764511 0.730666 0.674782
0.767197 0.735283 0.681259
0.771217 0.742195 0.690954
0.775237 0.749107 0.700648
0.777923 0.753724 0.707125
0.790019 0.768049 0.722914
0.804886 0.784930 0.740823
0.819690 0.801740 0.758655
0.829580 0.812971 0.770568
0.676759 0.631775 0.561071
0.688583 0.645055 0.575712
0.700406 0.658335 0.590353
0.712230 0.671616 0.604994
0.719893 0.680048 0.614743
0.731360 0.692628 0.629391
0.742778 0.705154 0.643976
0.750407 0.713522 0.653720
0.761825 0.726048 0.668305
0.765845 0.732960 0.678000
0.769882 0.739901 0.687736
0.772551 0.744489 0.694172
0.776588 0.751430 0.703907
0.785105 0.762470 0.716996
0.794996 0.773700 0.728909
0.809800 0.790510 0.746741
0.824604 0.807320 0.764574
0.839471 0.824201 0.782482
0.848444 0.833990 0.794939
0.861423 0.847928 0.813853
0.874402 0.861867 0.832767
0.059988 0.037925 0.002675
0.068848 0.048957 0.010770
0.074742 0.056295 0.016156
0.083564 0.067280 0.024216
0.092386 0.078264 0.032277
0.101537 0.087582 0.042054
0.107725 0.093433 0.048970
0.117027 0.102229 0.059367
0.126289 0.110988 0.069719
0.132477 0.116840 0.076635
0.141665 0.124893 0.083940
0.150838 0.132807 0.090638
0.156966 0.138094 0.095113
0.166178 0.146041 0.101840
0.175624 0.153911 0.108391
0.185882 0.161654 0.114503
0.192736 0.166827 0.118586
0.202994 0.174570 0.124697
0.213296 0.182346 0.130835
0.219872 0.187872 0.135696
0.229466 0.196815 0.144268
0.086492 0.070926 0.026892
0.095389 0.081767 0.035182
0.104651 0.090526 0.045534
0.110839 0.096378 0.052450
0.120101 0.105136 0.062803
0.129363 0.113895 0.073155
0.138620 0.122267 0.081716
0.144748 0.127554 0.086192
0.153921 0.135467 0.092890
0.163094 0.143381 0.099588
0.169223 0.148667 0.104063
0.179029 0.156481 0.110420
0.189331 0.164257 0.116557
0.199589 0.172000 0.122669
0.206443 0.177173 0.126752
0.216701 0.184916 0.132863
0.226254 0.193821 0.141399
0.232637 0.199771 0.147101
0.242190 0.208677 0.155637
0.251784 0.217620 0.164209
0.258275 0.223576 0.169780
0.117027 0.102229 0.059367
0.123175 0.108044 0.066239
0.132477 0.116840 0.076635
0.141665 0.124893 0.083940
0.147793 0.130180 0.088415
0.156966 0.138094 0.095113
0.166178 0.146041 0.101840
0.172267 0.151294 0.106287
0.182477 0.159084 0.112474
0.192736 0.166827 0.118586
0.202994 0.174570 0.124697
0.209848 0.179743 0.128780
0.219872 0.187872 0.135696
0.229466 0.196815 0.144268
0.239019 0.205721 0.152804
0.245401 0.211671 0.158507
0.254954 0.220576 0.167042
0.265470 0.229534 0.174418
0.272711 0.235530 0.179085
0.283595 0.244544 0.186100
0.294433 0.253519 0.193086
0.141665 0.124893 0.083940
0.150838 0.132807 0.090638
0.160050 0.140754 0.097365
0.166178 0.146041 0.101840
0.175624 0.153911 0.108391
0.185882 0.161654 0.114503
0.192736 0.166827 0.118586
0.202994 0.174570 0.124697
0.213296 0.182346 0.130835
0.223083 0.190865 0.138566
0.229466 0.196815 0.144268
0.239019 0.205721 0.152804
0.248572 0.214627 0.161340
0.254954 0.220576 0.167042
0.265470 0.229534 0.174418
0.276354 0.238547 0.181433
0.283595 0.244544 0.186100
0.294433 0.253519 0.193086
0.305208 0.262597 0.200308
0.315712 0.272238 0.208751
0.322655 0.278610 0.214331
0.169223 0.148667 0.104063
0.179029 0.156481 0.110420
0.189331 0.164257 0.116557
0.196141 0.169397 0.120614
0.206443 0.177173 0.126752
0.216701 0.184916 0.132863
0.226254 0.193821 0.141399
0.232637 0.199771 0.147101
0.242190 0.208677 0.155637
0.251784 0.217620 0.164209
0.261873 0.226555 0.172099
0.269113 0.232551 0.176766
0.279951 0.241526 0.183752
0.290789 0.250502 0.190738
0.298030 0.256498 0.195405
0.308724 0.265824 0.203134
0.319184 0.275424 0.211541
0.329643 0.285023 0.219948
0.336631 0.291436 0.225564
0.347091 0.301036 0.233971
0.354512 0.310734 0.245470
0.202994 0.174570 0.124697
0.209848 0.179743 0.128780
0.219872 0.187872 0.135696
0.229466 0.196815 0.144268
0.239019 0.205721 0.152804
0.245401 0.211671 0.158507
0.254954 0.220576 0.167042
0.265470 0.229534 0.174418
0.272711 0.235530 0.179085
0.283595 0.244544 0.186100
0.294433 0.253519 0.193086
0.301674 0.259515 0.197754
0.312196 0.269011 0.205925
0.322655 0.278610 0.214331
0.333159 0.288250 0.222774
0.340147 0.294663 0.228390
0.349765 0.304279 0.237632
0.356871 0.313941 0.249365
0.363977 0.323604 0.261097
0.368724 0.330059 0.268935
0.375860 0.339763 0.280718
0.232637 0.199771 0.147101
0.242190 0.208677 0.155637
0.251784 0.217620 0.164209
0.258275 0.223576 0.169780
0.269113 0.232551 0.176766
0.279951 0.241526 0.183752
0.287192 0.247523 0.188419
0.298030 0.256498 0.195405
0.308724 0.265824 0.203134
0.315712 0.272238 0.208751
0.326172 0.281837 0.217158
0.336631 0.291436 0.225564
0.347091 0.301036 0.233971
0.352123 0.307486 0.241526
0.359260 0.317190 0.253309
0.366366 0.326852 0.265041
0.371113 0.333308 0.272879
0.378219 0.342970 0.284612
0.389306 0.353523 0.293887
0.396713 0.360574 0.300084
0.407800 0.371127 0.309359
0.261873 0.226555 0.172099
0.269113 0.232551 0.176766
0.279951 0.241526 0.183752
0.290789 0.250502 0.190738
0.298030 0.256498 0.195405
0.308724 0.265824 0.203134
0.319184 0.275424 0.211541
0.329643 0.285023 0.219948
0.336631 0.291436 0.225564
0.347091 0.301036 0.233971
0.354512 0.310734 0.245470
0.359260 0.317190 0.253309
0.366366 0.326852 0.265041
0.373472 0.336515 0.276773
0.381899 0.346473 0.287690
0.389306 0.353523 0.293887
0.400440 0.364121 0.303202
0.411527 0.374674 0.312477
0.418934 0.381725 0.318673
0.430008 0.392399 0.328299
0.441064 0.403245 0.338413
0.294433 0.253519 0.193086
0.305208 0.262597 0.200308
0.312196 0.269011 0.205925
0.322655 0.278610 0.214331
0.333159 0.288250 0.222774
0.343619 0.297849 0.231181
0.349765 0.304279 0.237632
0.356871 0.313941 0.249365
0.363977 0.323604 0.261097
0.368724 0.330059 0.268935
0.375860 0.339763 0.280718
0.385626 0.350021 0.290808
0.393033 0.357071 0.297005
0.404120 0.367624 0.306280
0.415207 0.378177 0.315555
0.422614 0.385227 0.321752
0.433677 0.395999 0.331656
0.444780 0.406891 0.341813
0.455836 0.417736 0.351928
0.463222 0.424982 0.358685
0.474802 0.436370 0.369410
0.326172 0.281837 0.217158
0.336631 0.291436 0.225564
0.347091 0.301036 0.233971
0.352123 0.307486 0.241526
0.359260 0.317190 0.253309
0.366366 0.326852 0.265041
0.373472 0.336515 0.276773
0.378219 0.342970 0.284612
0.389306 0.353523 0.293887
0.400440 0.364121 0.303202
0.407800 0.371127 0.309359
0.418934 0.381725 0.318673
0.430008 0.392399 0.328299
0.437394 0.399645 0.335056
0.448450 0.410491 0.345170
0.459506 0.421336 0.355285
0.470609 0.432228 0.365442
0.479581 0.441114 0.374048
0.493794 0.455228 0.387843
0.508008 0.469342 0.401638
0.517504 0.478771 0.410855
0.356871 0.313941 0.249365
0.361618 0.320397 0.257203
0.368724 0.330059 0.268935
0.375860 0.339763 0.280718
0.381899 0.346473 0.287690
0.393033 0.357071 0.297005
0.404120 0.367624 0.306280
0.411527 0.374674 0.312477
0.422614 0.385227 0.321752
0.433677 0.395999 0.331656
0.444780 0.406891 0.341813
0.452167 0.414137 0.348570
0.463222 0.424982 0.358685
0.474802 0.436370 0.369410
0.489077 0.450544 0.383264
0.498512 0.459913 0.392422
0.512786 0.474086 0.406276
0.527000 0.488200 0.420071
0.536447 0.497475 0.429151
0.550463 0.510972 0.442405
0.564480 0.524469 0.455659
0.375860 0.339763 0.280718
0.385626 0.350021 0.290808
0.396713 0.360574 0.300084
0.404120 0.367624 0.306280
0.415207 0.378177 0.315555
0.426338 0.388800 0.324942
0.433677 0.395999 0.331656
0.444780 0.406891 0.341813
0.455836 0.417736 0.351928
0.466892 0.428582 0.362042
0.474802 0.436370 0.369410
0.489077 0.450544 0.383264
0.503290 0.464657 0.397059
0.512786 0.474086 0.406276
0.527000 0.488200 0.420071
0.541099 0.501955 0.433551
0.550463 0.510972 0.442405
0.564480 0.524469 0.455659
0.578556 0.538024 0.468969
0.592573 0.551522 0.482222
0.598255 0.556535 0.486604
0.407800 0.371127 0.309359
0.418934 0.381725 0.318673
0.430008 0.392399 0.328299
0.437394 0.399645 0.335056
0.448450 0.410491 0.345170
0.459506 0.421336 0.355285
0.470609 0.432228 0.365442
0.479581 0.441114 0.374048
0.493794 0.455228 0.387843
0.508008 0.469342 0.401638
0.522282 0.483516 0.415492
0.531718 0.492885 0.424650
0.545811 0.506492 0.438006
0.559828 0.519989 0.451260
0.569192 0.529007 0.460114
0.583209 0.542504 0.473368
0.595396 0.554012 0.484399
0.603938 0.561548 0.490985
0.609620 0.566561 0.495367
0.618126 0.574065 0.501926
0.626632 0.581568 0.508484
0.444780 0.406891 0.341813
0.452167 0.414137 0.348570
0.463222 0.424982 0.358685
0.474802 0.436370 0.369410
0.489077 0.450544 0.383264
0.498512 0.459913 0.392422
0.512786 0.474086 0.406276
0.527000 0.488200 0.420071
0.536447 0.497475 0.429151
0.550463 0.510972 0.442405
0.564480 0.524469 0.455659
0.573844 0.533487 0.464513
0.587920 0.547042 0.477823
0.598255 0.556535 0.486604
0.606761 0.564038 0.493162
0.612443 0.569052 0.497544
0.620949 0.576555 0.504103
0.629450 0.584108 0.510807
0.637477 0.591812 0.518752
0.642840 0.596959 0.524060
0.650866 0.604662 0.532004
0.479581 0.441114 0.374048
0.493794 0.455228 0.387843
0.508008 0.469342 0.401638
0.517504 0.478771 0.410855
0.531718 0.492885 0.424650
0.545811 0.506492 0.438006
0.555175 0.515509 0.446860
0.569192 0.529007 0.460114
0.583209 0.542504 0.473368
0.592573 0.551522 0.482222
0.601078 0.559025 0.488781
0.609620 0.566561 0.495367
0.618126 0.574065 0.501926
0.623808 0.579078 0.506307
0.632114 0.586665 0.513444
0.640141 0.594369 0.521389
0.645504 0.599516 0.526696
0.653530 0.607219 0.534641
0.661591 0.614956 0.542620
0.668860 0.622903 0.551290
0.680684 0.636183 0.565931
0.522282 0.483516 0.415492
0.531718 0.492885 0.424650
0.545811 0.506492 0.438006
0.559828 0.519989 0.451260
0.569192 0.529007 0.460114
0.583209 0.542504 0.473368
0.595396 0.554012 0.484399
0.601078 0.559025 0.488781
0.609620 0.566561 0.495367
0.618126 0.574065 0.501926
0.626632 0.581568 0.508484
0.632114 0.586665 0.513444
0.640141 0.594369 0.521389
0.648202 0.602105 0.529367
0.656229 0.609809 0.537312
0.661591 0.614956 0.542620
0.672785 0.627311 0.556149
0.684608 0.640591 0.570791
0.692507 0.649463 0.580572
0.704381 0.662800 0.595275
0.716103 0.675891 0.609902
0.564480 0.524469 0.455659
0.578556 0.538024 0.468969
0.587920 0.547042 0.477823
0.598255 0.556535 0.486604
0.606761 0.564038 0.493162
0.612443 0.569052 0.497544
0.620949 0.576555 0.504103
0.629450 0.584108 0.510807
0.637477 0.591812 0.518752
0.642840 0.596959 0.524060
0.650866 0.604662 0.532004
0.658893 0.612366 0.539949
0.664886 0.618438 0.546368
0.676759 0.631775 0.561071
0.688583 0.645055 0.575712
0.696482 0.653928 0.585494
0.708305 0.667208 0.600135
0.719893 0.680048 0.614743
0.731360 0.692628 0.629391
0.738940 0.700943 0.639073
0.750407 0.713522 0.653720
0.601078 0.559025 0.488781
0.609620 0.566561 0.495367
0.618126 0.574065 0.501926
0.623808 0.579078 0.506307
0.632114 0.586665 0.513444
0.640141 0.594369 0.521389
0.648202 0.602105 0.529367
0.653530 0.607219 0.534641
0.661591 0.614956 0.542620
0.672785 0.627311 0.556149
0.680684 0.636183 0.565931
0.692507 0.649463 0.580572
0.704381 0.662800 0.595275
0.712230 0.671616 0.604994
0.723731 0.684259 0.619647
0.735150 0.696785 0.634232
0.746568 0.709311 0.648817
0.754197 0.717680 0.658561
0.763160 0.728342 0.671523
0.767197 0.735283 0.681259
0.769882 0.739901 0.687736
0.626632 0.581568 0.508484
0.634779 0.589222 0.516081
0.642840 0.596959 0.524060
0.650866 0.604662 0.532004
0.656229 0.609809 0.537312
0.664886 0.618438 0.546368
0.676759 0.631775 0.561071
0.684608 0.640591 0.570791
0.696482 0.653928 0.585494
0.708305 0.667208 0.600135
0.719893 0.680048 0.614743
0.727521 0.688417 0.624488
0.738940 0.700943 0.639073
0.750407 0.713522 0.653720
0.761825 0.726048 0.668305
0.764511 0.730666 0.674782
0.768531 0.737577 0.684477
0.772551 0.744489 0.694172
0.775237 0.749107 0.700648
0.780192 0.756890 0.711077
0.794996 0.773700 0.728909
0.650866 0.604662 0.532004
0.658893 0.612366 0.539949
0.668860 0.622903 0.551290
0.676759 0.631775 0.561071
0.688583 0.645055 0.575712
0.700406 0.658335 0.590353
0.708305 0.667208 0.600135
0.719893 0.680048 0.614743
0.731360 0.692628 0.629391
0.742778 0.705154 0.643976
0.750407 0.713522 0.653720
0.761825 0.726048 0.668305
0.765845 0.732960 0.678000
0.768531 0.737577 0.684477
0.772551 0.744489 0.694172
0.776588 0.751430 0.703907
0.780192 0.756890 0.711077
0.794996 0.773700 0.728909
0.809800 0.790510 0.746741
0.819690 0.801740 0.758655
0.834494 0.818550 0.776487
0.680684 0.636183 0.565931
0.692507 0.649463 0.580572
0.704381 0.662800 0.595275
0.712230 0.671616 0.604994
0.723731 0.684259 0.619647
0.735150 0.696785 0.634232
0.746568 0.709311 0.648817
0.754197 0.717680 0.658561
0.763160 0.728342 0.671523
0.767197 0.735283 0.681259
0.771217 0.742195 0.690954
0.773903 0.746813 0.697431
0.777923 0.753724 0.707125
0.790019 0.768049 0.722914
0.799909 0.779280 0.734828
0.814776 0.796161 0.752736
0.829580 0.812971 0.770568
0.839471 0.824201 0.782482
0.852752 0.838616 0.801216
0.865731 0.852555 0.820131
0.878765 0.866552 0.839126
0.062954 0.041618 0.005385
