profils/20230909_cyanotype_4min/profils/LUT3Dscreen_cyano_4min.cube
#Created by: Easy Digital Negatives
TITLE  "Easy Digital Negatives"
LUT_3D_SIZE 21
DOMAIN_MIN 0.0 0.0 0.0
DOMAIN_MAX 1.0 1.0 1.0
#LUT data points
0.000000 0.087457 0.248535
0.000000 0.095654 0.258434
0.000000 0.103885 0.268375
0.000000 0.109326 0.274947
0.000000 0.117557 0.284888
0.000000 0.125415 0.293369
0.000000 0.130349 0.297709
0.000000 0.137735 0.304205
0.000000 0.145120 0.310701
0.000000 0.150054 0.315042
0.000000 0.156565 0.320115
0.000000 0.162148 0.323723
0.000000 0.167731 0.327331
0.000000 0.171461 0.329742
0.000000 0.177044 0.333350
0.000000 0.186317 0.343102
0.000000 0.192712 0.349967
0.000000 0.202284 0.360242
0.000000 0.211856 0.370517
0.000000 0.218251 0.377382
0.000000 0.228493 0.388860
0.000000 0.112081 0.278275
0.000000 0.120278 0.288174
0.000000 0.127867 0.295525
0.000000 0.132801 0.299865
0.000000 0.140217 0.306389
0.000000 0.147602 0.312885
0.000000 0.154689 0.318902
0.000000 0.158418 0.321313
0.000000 0.164001 0.324921
0.000000 0.169608 0.328544
0.000000 0.175191 0.332152
0.000000 0.179922 0.336237
0.000000 0.189494 0.346512
0.000000 0.199066 0.356788
0.000000 0.205461 0.363652
0.000000 0.215074 0.373972
0.000000 0.225094 0.385050
0.000000 0.231937 0.392718
0.000000 0.242179 0.404196
0.000000 0.252421 0.415673
0.000000 0.259264 0.423341
0.000000 0.137735 0.304205
0.000000 0.142668 0.308545
0.000000 0.150054 0.315042
0.000000 0.156565 0.320115
0.000000 0.160295 0.322526
0.000000 0.165878 0.326134
0.000000 0.171461 0.329742
0.000000 0.177044 0.333350
0.000000 0.183099 0.339647
0.000000 0.192712 0.349967
0.000000 0.202284 0.360242
0.000000 0.208679 0.367107
0.000000 0.218251 0.377382
0.000000 0.228493 0.388860
0.000000 0.238779 0.400386
0.000000 0.245578 0.408005
0.000000 0.255864 0.419532
0.000000 0.266321 0.430153
0.000000 0.273507 0.436450
0.000000 0.284264 0.445874
0.000000 0.295021 0.455299
0.000000 0.156565 0.320115
0.000000 0.162148 0.323723
0.000000 0.167731 0.327331
0.000000 0.171461 0.329742
0.000000 0.177044 0.333350
0.000000 0.186317 0.343102
0.000000 0.195889 0.353377
0.000000 0.202284 0.360242
0.000000 0.211856 0.370517
0.000000 0.221651 0.381192
0.000000 0.228493 0.388860
0.000000 0.238779 0.400386
0.000000 0.249021 0.411864
0.000000 0.255864 0.419532
0.000000 0.266321 0.430153
0.000000 0.277078 0.439578
0.000000 0.287880 0.449042
0.000000 0.295021 0.455299
0.000000 0.305823 0.464763
0.000000 0.311586 0.461770
0.000000 0.314773 0.458119
0.000000 0.173338 0.330955
0.000000 0.179922 0.336237
0.000000 0.189494 0.346512
0.000000 0.199066 0.356788
0.000000 0.205461 0.363652
0.000000 0.215074 0.373972
0.000000 0.225094 0.385050
0.000000 0.231937 0.392718
0.000000 0.242179 0.404196
0.000000 0.252421 0.415673
0.000000 0.262750 0.427025
0.000000 0.269891 0.433281
0.000000 0.280694 0.442746
0.000000 0.291450 0.452171
0.000000 0.302207 0.461595
0.000000 0.308400 0.465420
0.000000 0.313190 0.459933
0.000000 0.317960 0.454468
0.000000 0.321146 0.450817
0.000000 0.325916 0.445353
0.000000 0.330160 0.445416
0.000000 0.202284 0.360242
0.000000 0.211856 0.370517
0.000000 0.218251 0.377382
0.000000 0.228493 0.388860
0.000000 0.238779 0.400386
0.000000 0.245578 0.408005
0.000000 0.255864 0.419532
0.000000 0.266321 0.430153
0.000000 0.273507 0.436450
0.000000 0.284264 0.445874
0.000000 0.295021 0.455299
0.000000 0.305823 0.464763
0.000000 0.310003 0.463583
0.000000 0.314773 0.458119
0.000000 0.319543 0.452654
0.000000 0.322729 0.449004
0.000000 0.327499 0.443539
0.000000 0.331461 0.446767
0.000000 0.335329 0.450785
0.000000 0.337913 0.453470
0.000000 0.341781 0.457488
0.000000 0.231937 0.392718
0.000000 0.242179 0.404196
0.000000 0.252421 0.415673
0.000000 0.259264 0.423341
0.000000 0.269891 0.433281
0.000000 0.280694 0.442746
0.000000 0.287880 0.449042
0.000000 0.298637 0.458467
0.000000 0.308400 0.465420
0.000000 0.313190 0.459933
0.000000 0.316356 0.456305
0.000000 0.321146 0.450817
0.000000 0.325916 0.445353
0.000000 0.328876 0.444083
0.000000 0.332745 0.448101
0.000000 0.336613 0.452119
0.000000 0.339197 0.454804
0.000000 0.343082 0.458839
0.006905 0.352206 0.469107
0.017240 0.363941 0.482480
0.024145 0.371781 0.491414
0.000000 0.262750 0.427025
0.000000 0.269891 0.433281
0.000000 0.280694 0.442746
0.000000 0.291450 0.452171
0.000000 0.302207 0.461595
0.000000 0.308400 0.465420
0.000000 0.313190 0.459933
0.000000 0.317960 0.454468
0.000000 0.321146 0.450817
0.000000 0.325916 0.445353
0.000000 0.330160 0.445416
0.000000 0.332745 0.448101
0.000000 0.336613 0.452119
0.000000 0.340497 0.456154
0.000000 0.344366 0.460173
0.006905 0.352206 0.469107
0.017240 0.363941 0.482480
0.027576 0.375676 0.495853
0.037955 0.387461 0.509283
0.046575 0.395301 0.517877
0.077059 0.407042 0.527245
0.000000 0.295021 0.455299
0.000000 0.305823 0.464763
0.000000 0.310003 0.463583
0.000000 0.314773 0.458119
0.000000 0.319543 0.452654
0.000000 0.324333 0.447166
0.000000 0.327499 0.443539
0.000000 0.331461 0.446767
0.000000 0.335329 0.450785
0.000000 0.337913 0.453470
0.000000 0.341781 0.457488
0.003431 0.348261 0.464611
0.010336 0.356101 0.473546
0.020715 0.367886 0.486976
0.031050 0.379621 0.500349
0.041386 0.391356 0.513722
0.056693 0.399198 0.520986
0.087176 0.410939 0.530354
0.117789 0.422730 0.539762
0.138025 0.430524 0.545981
0.168638 0.442314 0.555388
0.000000 0.316356 0.456305
0.000000 0.321146 0.450817
0.000000 0.325916 0.445353
0.000000 0.328876 0.444083
0.000000 0.332745 0.448101
0.000000 0.336613 0.452119
0.000000 0.340497 0.456154
0.000000 0.343082 0.458839
0.006905 0.352206 0.469107
0.017240 0.363941 0.482480
0.024145 0.371781 0.491414
0.034481 0.383516 0.504787
0.046575 0.395301 0.517877
0.077059 0.407042 0.527245
0.097424 0.414886 0.533503
0.127907 0.426627 0.542871
0.158391 0.438367 0.552239
0.176356 0.446191 0.558770
0.192446 0.457855 0.569827
0.208468 0.469471 0.580836
0.219172 0.477231 0.588191
0.000000 0.331461 0.446767
0.000000 0.334045 0.449452
0.000000 0.337913 0.453470
0.000000 0.341781 0.457488
0.000000 0.344366 0.460173
0.010336 0.356101 0.473546
0.020715 0.367886 0.486976
0.027576 0.375676 0.495853
0.037955 0.387461 0.509283
0.056693 0.399198 0.520986
0.087176 0.410939 0.530354
0.107542 0.418783 0.536613
0.138025 0.430524 0.545981
0.168638 0.442314 0.555388
0.187060 0.453951 0.566125
0.197764 0.461711 0.573481
0.213786 0.473326 0.584490
0.229876 0.484991 0.595547
0.240512 0.492702 0.602855
0.259056 0.503442 0.611012
0.277747 0.514051 0.618868
0.000000 0.341781 0.457488
0.003431 0.348261 0.464611
0.013810 0.360046 0.478041
0.020715 0.367886 0.486976
0.031050 0.379621 0.500349
0.041386 0.391356 0.513722
0.066811 0.403095 0.524095
0.087176 0.410939 0.530354
0.117789 0.422730 0.539762
0.148273 0.434471 0.549130
0.168638 0.442314 0.555388
0.187060 0.453951 0.566125
0.203082 0.465566 0.577135
0.213786 0.473326 0.584490
0.229876 0.484991 0.595547
0.246568 0.496354 0.605764
0.265260 0.506963 0.613620
0.277747 0.514051 0.618868
0.296438 0.524660 0.626724
0.315209 0.535314 0.634613
0.324299 0.540081 0.637732
0.024145 0.371781 0.491414
0.034481 0.383516 0.504787
0.046575 0.395301 0.517877
0.077059 0.407042 0.527245
0.097424 0.414886 0.533503
0.127907 0.426627 0.542871
0.158391 0.438367 0.552239
0.176356 0.446191 0.558770
0.192446 0.457855 0.569827
0.208468 0.469471 0.580836
0.224490 0.481087 0.591846
0.235194 0.488847 0.599201
0.252772 0.499875 0.608372
0.271543 0.510529 0.616261
0.283951 0.517572 0.621475
0.302722 0.528226 0.629365
0.321413 0.538835 0.637220
0.330107 0.542590 0.638763
0.335916 0.545099 0.639793
0.344610 0.548854 0.641336
0.353341 0.552626 0.642885
0.087176 0.410939 0.530354
0.117789 0.422730 0.539762
0.138025 0.430524 0.545981
0.168638 0.442314 0.555388
0.187060 0.453951 0.566125
0.197764 0.461711 0.573481
0.213786 0.473326 0.584490
0.229876 0.484991 0.595547
0.240512 0.492702 0.602855
0.259056 0.503442 0.611012
0.277747 0.514051 0.618868
0.296438 0.524660 0.626724
0.308926 0.531747 0.631972
0.324299 0.540081 0.637732
0.333030 0.543853 0.639281
0.338839 0.546362 0.640312
0.347533 0.550117 0.641855
0.356227 0.553872 0.643397
0.375667 0.556532 0.634833
0.391062 0.558064 0.626848
0.414203 0.560366 0.614844
0.176356 0.446191 0.558770
0.192446 0.457855 0.569827
0.208468 0.469471 0.580836
0.219172 0.477231 0.588191
0.235194 0.488847 0.599201
0.252772 0.499875 0.608372
0.265260 0.506963 0.613620
0.283951 0.517572 0.621475
0.302722 0.528226 0.629365
0.315209 0.535314 0.634613
0.327222 0.541344 0.638251
0.335916 0.545099 0.639793
0.344610 0.548854 0.641336
0.350419 0.551363 0.642367
0.360371 0.555010 0.642767
0.383414 0.557303 0.630815
0.398808 0.558834 0.622829
0.421851 0.561127 0.610877
0.444894 0.563420 0.598924
0.459035 0.567199 0.595576
0.474589 0.583100 0.611631
0.224490 0.481087 0.591846
0.235194 0.488847 0.599201
0.252772 0.499875 0.608372
0.271543 0.510529 0.616261
0.283951 0.517572 0.621475
0.302722 0.528226 0.629365
0.321413 0.538835 0.637220
0.330107 0.542590 0.638763
0.335916 0.545099 0.639793
0.344610 0.548854 0.641336
0.353341 0.552626 0.642885
0.360371 0.555010 0.642767
0.383414 0.557303 0.630815
0.406457 0.559595 0.618862
0.429499 0.561888 0.606910
0.444894 0.563420 0.598924
0.464242 0.572521 0.600950
0.479730 0.588355 0.616937
0.495218 0.604189 0.632924
0.505565 0.614767 0.643604
0.521053 0.630601 0.659591
0.277747 0.514051 0.618868
0.296438 0.524660 0.626724
0.308926 0.531747 0.631972
0.324299 0.540081 0.637732
0.333030 0.543853 0.639281
0.341724 0.547608 0.640824
0.347533 0.550117 0.641855
0.356227 0.553872 0.643397
0.375667 0.556532 0.634833
0.391062 0.558064 0.626848
0.414203 0.560366 0.614844
0.437246 0.562659 0.602891
0.452640 0.564190 0.594906
0.469382 0.577777 0.606256
0.484870 0.593611 0.622243
0.500424 0.609512 0.638298
0.510772 0.620090 0.648979
0.526553 0.635730 0.664701
0.543210 0.650793 0.679635
0.554338 0.660856 0.689612
0.570995 0.675918 0.704545
0.327222 0.541344 0.638251
0.335916 0.545099 0.639793
0.344610 0.548854 0.641336
0.350419 0.551363 0.642367
0.360371 0.555010 0.642767
0.383414 0.557303 0.630815
0.406457 0.559595 0.618862
0.421851 0.561127 0.610877
0.444894 0.563420 0.598924
0.464242 0.572521 0.600950
0.474589 0.583100 0.611631
0.490077 0.598933 0.627618
0.505565 0.614767 0.643604
0.521053 0.630601 0.659591
0.532082 0.640730 0.669658
0.548810 0.655856 0.684655
0.565466 0.670919 0.699588
0.576595 0.680982 0.709565
0.593252 0.696044 0.724499
0.612289 0.708774 0.736166
0.625008 0.717279 0.743961
0.356227 0.553872 0.643397
0.368019 0.555771 0.638800
0.391062 0.558064 0.626848
0.414203 0.560366 0.614844
0.429499 0.561888 0.606910
0.452640 0.564190 0.594906
0.469382 0.577777 0.606256
0.479730 0.588355 0.616937
0.495218 0.604189 0.632924
0.510772 0.620090 0.648979
0.526553 0.635730 0.664701
0.537681 0.645793 0.674678
0.554338 0.660856 0.689612
0.570995 0.675918 0.704545
0.587723 0.691045 0.719542
0.599570 0.700270 0.728371
0.618689 0.713054 0.740089
0.637727 0.725784 0.751756
0.650446 0.734289 0.759551
0.669483 0.747019 0.771219
0.688289 0.761307 0.784605
0.414203 0.560366 0.614844
0.437246 0.562659 0.602891
0.459035 0.567199 0.595576
0.469382 0.577777 0.606256
0.484870 0.593611 0.622243
0.500424 0.609512 0.638298
0.510772 0.620090 0.648979
0.526553 0.635730 0.664701
0.543210 0.650793 0.679635
0.559867 0.665855 0.694568
0.570995 0.675918 0.704545
0.587723 0.691045 0.719542
0.605970 0.704549 0.732294
0.618689 0.713054 0.740089
0.637727 0.725784 0.751756
0.656765 0.738514 0.763424
0.669483 0.747019 0.771219
0.688289 0.761307 0.784605
0.707097 0.776180 0.798626
0.725825 0.790991 0.812588
0.738337 0.800885 0.821915
0.474589 0.583100 0.611631
0.490077 0.598933 0.627618
0.505565 0.614767 0.643604
0.521053 0.630601 0.659591
0.532082 0.640730 0.669658
0.548810 0.655856 0.684655
0.565466 0.670919 0.699588
0.576595 0.680982 0.709565
0.593252 0.696044 0.724499
0.612289 0.708774 0.736166
0.631408 0.721559 0.747884
0.644046 0.730009 0.755629
0.663165 0.742793 0.767346
0.682073 0.756391 0.779971
0.694585 0.766286 0.789298
0.713313 0.781096 0.803260
0.732042 0.795906 0.817222
0.750849 0.810780 0.831243
0.764484 0.819961 0.838986
0.785449 0.833350 0.849791
0.806413 0.846738 0.860597
0.000000 0.090178 0.251820
0.000000 0.098409 0.261762
0.000000 0.103885 0.268375
0.000000 0.112081 0.278275
0.000000 0.120278 0.288174
0.000000 0.127867 0.295525
0.000000 0.132801 0.299865
0.000000 0.140217 0.306389
0.000000 0.147602 0.312885
0.000000 0.152536 0.317225
0.000000 0.158418 0.321313
0.000000 0.164001 0.324921
0.000000 0.167731 0.327331
0.000000 0.173338 0.330955
0.000000 0.179922 0.336237
0.000000 0.189494 0.346512
0.000000 0.195889 0.353377
0.000000 0.205461 0.363652
0.000000 0.215074 0.373972
0.000000 0.221651 0.381192
0.000000 0.231937 0.392718
0.000000 0.114802 0.281560
0.000000 0.122964 0.291212
0.000000 0.130349 0.297709
0.000000 0.135283 0.302049
0.000000 0.142668 0.308545
0.000000 0.150054 0.315042
0.000000 0.156565 0.320115
0.000000 0.160295 0.322526
0.000000 0.165878 0.326134
0.000000 0.171461 0.329742
0.000000 0.175191 0.332152
0.000000 0.183099 0.339647
0.000000 0.192712 0.349967
0.000000 0.202284 0.360242
0.000000 0.208679 0.367107
0.000000 0.218251 0.377382
0.000000 0.228493 0.388860
0.000000 0.235336 0.396528
0.000000 0.245578 0.408005
0.000000 0.255864 0.419532
0.000000 0.262750 0.427025
0.000000 0.140217 0.306389
0.000000 0.145120 0.310701
0.000000 0.152536 0.317225
0.000000 0.158418 0.321313
0.000000 0.162148 0.323723
0.000000 0.167731 0.327331
0.000000 0.173338 0.330955
0.000000 0.177044 0.333350
0.000000 0.186317 0.343102
0.000000 0.195889 0.353377
0.000000 0.205461 0.363652
0.000000 0.211856 0.370517
0.000000 0.221651 0.381192
0.000000 0.231937 0.392718
0.000000 0.242179 0.404196
0.000000 0.249021 0.411864
0.000000 0.259264 0.423341
0.000000 0.269891 0.433281
0.000000 0.277078 0.439578
0.000000 0.287880 0.449042
0.000000 0.298637 0.458467
0.000000 0.158418 0.321313
0.000000 0.164001 0.324921
0.000000 0.169608 0.328544
0.000000 0.173338 0.330955
0.000000 0.179922 0.336237
0.000000 0.189494 0.346512
0.000000 0.195889 0.353377
0.000000 0.205461 0.363652
0.000000 0.215074 0.373972
0.000000 0.225094 0.385050
0.000000 0.231937 0.392718
0.000000 0.242179 0.404196
0.000000 0.252421 0.415673
0.000000 0.259264 0.423341
0.000000 0.269891 0.433281
0.000000 0.280694 0.442746
0.000000 0.287880 0.449042
0.000000 0.298637 0.458467
0.000000 0.308400 0.465420
0.000000 0.313190 0.459933
0.000000 0.316356 0.456305
0.000000 0.175191 0.332152
0.000000 0.183099 0.339647
0.000000 0.192712 0.349967
0.000000 0.199066 0.356788
0.000000 0.208679 0.367107
0.000000 0.218251 0.377382
0.000000 0.228493 0.388860
0.000000 0.235336 0.396528
0.000000 0.245578 0.408005
0.000000 0.255864 0.419532
0.000000 0.266321 0.430153
0.000000 0.273507 0.436450
0.000000 0.284264 0.445874
0.000000 0.295021 0.455299
0.000000 0.302207 0.461595
0.000000 0.310003 0.463583
0.000000 0.314773 0.458119
0.000000 0.319543 0.452654
0.000000 0.322729 0.449004
0.000000 0.327499 0.443539
0.000000 0.331461 0.446767
0.000000 0.205461 0.363652
0.000000 0.211856 0.370517
0.000000 0.221651 0.381192
0.000000 0.231937 0.392718
0.000000 0.242179 0.404196
0.000000 0.249021 0.411864
0.000000 0.259264 0.423341
0.000000 0.269891 0.433281
0.000000 0.277078 0.439578
0.000000 0.287880 0.449042
0.000000 0.298637 0.458467
0.000000 0.305823 0.464763
0.000000 0.311586 0.461770
0.000000 0.316356 0.456305
0.000000 0.321146 0.450817
0.000000 0.324333 0.447166
0.000000 0.328876 0.444083
0.000000 0.332745 0.448101
0.000000 0.336613 0.452119
0.000000 0.339197 0.454804
0.000000 0.343082 0.458839
0.000000 0.235336 0.396528
0.000000 0.245578 0.408005
0.000000 0.255864 0.419532
0.000000 0.262750 0.427025
0.000000 0.273507 0.436450
0.000000 0.284264 0.445874
0.000000 0.291450 0.452171
0.000000 0.302207 0.461595
0.000000 0.310003 0.463583
0.000000 0.313190 0.459933
0.000000 0.317960 0.454468
0.000000 0.322729 0.449004
0.000000 0.327499 0.443539
0.000000 0.330160 0.445416
0.000000 0.334045 0.449452
0.000000 0.337913 0.453470
0.000000 0.340497 0.456154
0.000000 0.344366 0.460173
0.010336 0.356101 0.473546
0.017240 0.363941 0.482480
0.027576 0.375676 0.495853
0.000000 0.266321 0.430153
0.000000 0.273507 0.436450
0.000000 0.284264 0.445874
0.000000 0.295021 0.455299
0.000000 0.302207 0.461595
0.000000 0.310003 0.463583
0.000000 0.314773 0.458119
0.000000 0.319543 0.452654
0.000000 0.322729 0.449004
0.000000 0.327499 0.443539
0.000000 0.331461 0.446767
0.000000 0.334045 0.449452
0.000000 0.337913 0.453470
0.000000 0.341781 0.457488
0.003431 0.348261 0.464611
0.010336 0.356101 0.473546
0.020715 0.367886 0.486976
0.031050 0.379621 0.500349
0.037955 0.387461 0.509283
0.056693 0.399198 0.520986
0.087176 0.410939 0.530354
0.000000 0.298637 0.458467
0.000000 0.308400 0.465420
0.000000 0.311586 0.461770
0.000000 0.316356 0.456305
0.000000 0.321146 0.450817
0.000000 0.325916 0.445353
0.000000 0.328876 0.444083
0.000000 0.332745 0.448101
0.000000 0.336613 0.452119
0.000000 0.339197 0.454804
0.000000 0.343082 0.458839
0.006905 0.352206 0.469107
0.013810 0.360046 0.478041
0.024145 0.371781 0.491414
0.034481 0.383516 0.504787
0.041386 0.391356 0.513722
0.066811 0.403095 0.524095
0.097424 0.414886 0.533503
0.127907 0.426627 0.542871
0.148273 0.434471 0.549130
0.176356 0.446191 0.558770
0.000000 0.317960 0.454468
0.000000 0.322729 0.449004
0.000000 0.327499 0.443539
0.000000 0.330160 0.445416
0.000000 0.334045 0.449452
0.000000 0.337913 0.453470
0.000000 0.341781 0.457488
0.000000 0.344366 0.460173
0.010336 0.356101 0.473546
0.020715 0.367886 0.486976
0.027576 0.375676 0.495853
0.037955 0.387461 0.509283
0.056693 0.399198 0.520986
0.077059 0.407042 0.527245
0.107542 0.418783 0.536613
0.138025 0.430524 0.545981
0.168638 0.442314 0.555388
0.181742 0.450095 0.562471
0.197764 0.461711 0.573481
0.213786 0.473326 0.584490
0.224490 0.481087 0.591846
0.000000 0.332745 0.448101
0.000000 0.335329 0.450785
0.000000 0.339197 0.454804
0.000000 0.343082 0.458839
0.003431 0.348261 0.464611
0.013810 0.360046 0.478041
0.024145 0.371781 0.491414
0.031050 0.379621 0.500349
0.041386 0.391356 0.513722
0.066811 0.403095 0.524095
0.097424 0.414886 0.533503
0.117789 0.422730 0.539762
0.148273 0.434471 0.549130
0.176356 0.446191 0.558770
0.192446 0.457855 0.569827
0.203082 0.465566 0.577135
0.219172 0.477231 0.588191
0.235194 0.488847 0.599201
0.246568 0.496354 0.605764
0.265260 0.506963 0.613620
0.283951 0.517572 0.621475
0.000000 0.343082 0.458839
0.006905 0.352206 0.469107
0.017240 0.363941 0.482480
0.024145 0.371781 0.491414
0.034481 0.383516 0.504787
0.046575 0.395301 0.517877
0.066811 0.403095 0.524095
0.097424 0.414886 0.533503
0.127907 0.426627 0.542871
0.158391 0.438367 0.552239
0.176356 0.446191 0.558770
0.192446 0.457855 0.569827
0.208468 0.469471 0.580836
0.219172 0.477231 0.588191
0.235194 0.488847 0.599201
0.252772 0.499875 0.608372
0.265260 0.506963 0.613620
0.283951 0.517572 0.621475
0.302722 0.528226 0.629365
0.321413 0.538835 0.637220
0.327222 0.541344 0.638251
0.027576 0.375676 0.495853
0.037955 0.387461 0.509283
0.056693 0.399198 0.520986
0.077059 0.407042 0.527245
0.107542 0.418783 0.536613
0.138025 0.430524 0.545981
0.168638 0.442314 0.555388
0.181742 0.450095 0.562471
0.197764 0.461711 0.573481
0.213786 0.473326 0.584490
0.229876 0.484991 0.595547
0.240512 0.492702 0.602855
0.259056 0.503442 0.611012
0.277747 0.514051 0.618868
0.290234 0.521138 0.624116
0.308926 0.531747 0.631972
0.324299 0.540081 0.637732
0.333030 0.543853 0.639281
0.338839 0.546362 0.640312
0.347533 0.550117 0.641855
0.356227 0.553872 0.643397
0.097424 0.414886 0.533503
0.117789 0.422730 0.539762
0.148273 0.434471 0.549130
0.176356 0.446191 0.558770
0.192446 0.457855 0.569827
0.203082 0.465566 0.577135
0.219172 0.477231 0.588191
0.235194 0.488847 0.599201
0.246568 0.496354 0.605764
0.265260 0.506963 0.613620
0.283951 0.517572 0.621475
0.296438 0.524660 0.626724
0.315209 0.535314 0.634613
0.327222 0.541344 0.638251
0.335916 0.545099 0.639793
0.341724 0.547608 0.640824
0.350419 0.551363 0.642367
0.360371 0.555010 0.642767
0.383414 0.557303 0.630815
0.398808 0.558834 0.622829
0.421851 0.561127 0.610877
0.181742 0.450095 0.562471
0.197764 0.461711 0.573481
0.213786 0.473326 0.584490
0.224490 0.481087 0.591846
0.240512 0.492702 0.602855
0.259056 0.503442 0.611012
0.271543 0.510529 0.616261
0.290234 0.521138 0.624116
0.308926 0.531747 0.631972
0.321413 0.538835 0.637220
0.330107 0.542590 0.638763
0.338839 0.546362 0.640312
0.347533 0.550117 0.641855
0.353341 0.552626 0.642885
0.368019 0.555771 0.638800
0.391062 0.558064 0.626848
0.406457 0.559595 0.618862
0.429499 0.561888 0.606910
0.452640 0.564190 0.594906
0.464242 0.572521 0.600950
0.479730 0.588355 0.616937
0.229876 0.484991 0.595547
0.240512 0.492702 0.602855
0.259056 0.503442 0.611012
0.277747 0.514051 0.618868
0.290234 0.521138 0.624116
0.308926 0.531747 0.631972
0.324299 0.540081 0.637732
0.330107 0.542590 0.638763
0.338839 0.546362 0.640312
0.347533 0.550117 0.641855
0.356227 0.553872 0.643397
0.368019 0.555771 0.638800
0.391062 0.558064 0.626848
0.414203 0.560366 0.614844
0.437246 0.562659 0.602891
0.452640 0.564190 0.594906
0.469382 0.577777 0.606256
0.484870 0.593611 0.622243
0.495218 0.604189 0.632924
0.510772 0.620090 0.648979
0.526553 0.635730 0.664701
0.283951 0.517572 0.621475
0.302722 0.528226 0.629365
0.315209 0.535314 0.634613
0.327222 0.541344 0.638251
0.335916 0.545099 0.639793
0.341724 0.547608 0.640824
0.350419 0.551363 0.642367
0.360371 0.555010 0.642767
0.383414 0.557303 0.630815
0.398808 0.558834 0.622829
0.421851 0.561127 0.610877
0.444894 0.563420 0.598924
0.459035 0.567199 0.595576
0.474589 0.583100 0.611631
0.490077 0.598933 0.627618
0.500424 0.609512 0.638298
0.515912 0.625345 0.654285
0.532082 0.640730 0.669658
0.548810 0.655856 0.684655
0.559867 0.665855 0.694568
0.576595 0.680982 0.709565
0.330107 0.542590 0.638763
0.338839 0.546362 0.640312
0.347533 0.550117 0.641855
0.353341 0.552626 0.642885
0.368019 0.555771 0.638800
0.391062 0.558064 0.626848
0.414203 0.560366 0.614844
0.429499 0.561888 0.606910
0.452640 0.564190 0.594906
0.469382 0.577777 0.606256
0.479730 0.588355 0.616937
0.495218 0.604189 0.632924
0.510772 0.620090 0.648979
0.521053 0.630601 0.659591
0.537681 0.645793 0.674678
0.554338 0.660856 0.689612
0.570995 0.675918 0.704545
0.582123 0.685981 0.714522
0.599570 0.700270 0.728371
0.618689 0.713054 0.740089
0.631408 0.721559 0.747884
0.356227 0.553872 0.643397
0.375667 0.556532 0.634833
0.398808 0.558834 0.622829
0.421851 0.561127 0.610877
0.437246 0.562659 0.602891
0.459035 0.567199 0.595576
0.474589 0.583100 0.611631
0.484870 0.593611 0.622243
0.500424 0.609512 0.638298
0.515912 0.625345 0.654285
0.532082 0.640730 0.669658
0.543210 0.650793 0.679635
0.559867 0.665855 0.694568
0.576595 0.680982 0.709565
0.593252 0.696044 0.724499
0.605970 0.704549 0.732294
0.625008 0.717279 0.743961
0.644046 0.730009 0.755629
0.656765 0.738514 0.763424
0.675857 0.751475 0.775337
0.694585 0.766286 0.789298
0.421851 0.561127 0.610877
0.444894 0.563420 0.598924
0.464242 0.572521 0.600950
0.474589 0.583100 0.611631
0.490077 0.598933 0.627618
0.505565 0.614767 0.643604
0.515912 0.625345 0.654285
0.532082 0.640730 0.669658
0.548810 0.655856 0.684655
0.565466 0.670919 0.699588
0.576595 0.680982 0.709565
0.593252 0.696044 0.724499
0.612289 0.708774 0.736166
0.625008 0.717279 0.743961
0.644046 0.730009 0.755629
0.663165 0.742793 0.767346
0.675857 0.751475 0.775337
0.694585 0.766286 0.789298
0.713313 0.781096 0.803260
0.725825 0.790991 0.812588
0.744554 0.805801 0.826549
0.479730 0.588355 0.616937
0.495218 0.604189 0.632924
0.510772 0.620090 0.648979
0.521053 0.630601 0.659591
0.537681 0.645793 0.674678
0.554338 0.660856 0.689612
0.570995 0.675918 0.704545
0.582123 0.685981 0.714522
0.599570 0.700270 0.728371
0.618689 0.713054 0.740089
0.637727 0.725784 0.751756
0.650446 0.734289 0.759551
0.669483 0.747019 0.771219
0.688289 0.761307 0.784605
0.700801 0.771201 0.793932
0.719609 0.786075 0.807954
0.738337 0.800885 0.821915
0.750849 0.810780 0.831243
0.771443 0.824405 0.842572
0.792407 0.837793 0.853378
0.813460 0.851239 0.864230
0.000000 0.092933 0.255148
