profils/20230909_cyanotype_4min/profils/LUT3Dscreen_cyano_4min.cube
#Created by: Easy Digital Negatives
TITLE  "Easy Digital Negatives"
LUT_3D_SIZE 6
DOMAIN_MIN 0.0 0.0 0.0
DOMAIN_MAX 1.0 1.0 1.0
#LUT data points
0.000000 0.087457 0.248535
0.000000 0.117557 0.284888
0.000000 0.145120 0.310701
0.000000 0.167731 0.327331
0.000000 0.192712 0.349967
0.000000 0.228493 0.388860
0.000000 0.173338 0.330955
0.000000 0.205461 0.363652
0.000000 0.242179 0.404196
0.000000 0.280694 0.442746
0.000000 0.313190 0.459933
0.000000 0.330160 0.445416
0.000000 0.295021 0.455299
0.000000 0.319543 0.452654
0.000000 0.335329 0.450785
0.010336 0.356101 0.473546
0.056693 0.399198 0.520986
0.168638 0.442314 0.555388
0.024145 0.371781 0.491414
0.097424 0.414886 0.533503
0.192446 0.457855 0.569827
0.252772 0.499875 0.608372
0.321413 0.538835 0.637220
0.353341 0.552626 0.642885
0.277747 0.514051 0.618868
0.333030 0.543853 0.639281
0.375667 0.556532 0.634833
0.452640 0.564190 0.594906
0.510772 0.620090 0.648979
0.570995 0.675918 0.704545
0.474589 0.583100 0.611631
0.532082 0.640730 0.669658
0.593252 0.696044 0.724499
0.663165 0.742793 0.767346
0.732042 0.795906 0.817222
0.806413 0.846738 0.860597
0.000000 0.098409 0.261762
0.000000 0.127867 0.295525
0.000000 0.152536 0.317225
0.000000 0.173338 0.330955
0.000000 0.205461 0.363652
0.000000 0.242179 0.404196
0.000000 0.183099 0.339647
0.000000 0.218251 0.377382
0.000000 0.255864 0.419532
0.000000 0.295021 0.455299
0.000000 0.319543 0.452654
0.000000 0.334045 0.449452
0.000000 0.308400 0.465420
0.000000 0.324333 0.447166
0.000000 0.339197 0.454804
0.024145 0.371781 0.491414
0.097424 0.414886 0.533503
0.192446 0.457855 0.569827
0.037955 0.387461 0.509283
0.138025 0.430524 0.545981
0.213786 0.473326 0.584490
0.277747 0.514051 0.618868
0.330107 0.542590 0.638763
0.368019 0.555771 0.638800
0.302722 0.528226 0.629365
0.341724 0.547608 0.640824
0.398808 0.558834 0.622829
0.474589 0.583100 0.611631
0.532082 0.640730 0.669658
0.593252 0.696044 0.724499
0.495218 0.604189 0.632924
0.554338 0.660856 0.689612
0.618689 0.713054 0.740089
0.688289 0.761307 0.784605
0.750849 0.810780 0.831243
0.827466 0.860184 0.871449
0.000000 0.106606 0.271661
0.000000 0.135283 0.302049
0.000000 0.160295 0.322526
0.000000 0.183099 0.339647
0.000000 0.218251 0.377382
0.000000 0.255864 0.419532
0.000000 0.195889 0.353377
0.000000 0.231937 0.392718
0.000000 0.269891 0.433281
0.000000 0.305823 0.464763
0.000000 0.324333 0.447166
0.000000 0.339197 0.454804
0.000000 0.313190 0.459933
0.000000 0.330160 0.445416
0.000000 0.344366 0.460173
0.037955 0.387461 0.509283
0.138025 0.430524 0.545981
0.213786 0.473326 0.584490
0.066811 0.403095 0.524095
0.176356 0.446191 0.558770
0.229876 0.484991 0.595547
0.296438 0.524660 0.626724
0.341724 0.547608 0.640824
0.398808 0.558834 0.622829
0.321413 0.538835 0.637220
0.353341 0.552626 0.642885
0.429499 0.561888 0.606910
0.495218 0.604189 0.632924
0.554338 0.660856 0.689612
0.612289 0.708774 0.736166
0.515912 0.625345 0.654285
0.576595 0.680982 0.709565
0.637727 0.725784 0.751756
0.707097 0.776180 0.798626
0.778490 0.828906 0.846205
0.852907 0.876246 0.884298
0.000000 0.117557 0.284888
0.000000 0.145120 0.310701
0.000000 0.167731 0.327331
0.000000 0.195889 0.353377
0.000000 0.228493 0.388860
0.000000 0.266321 0.430153
0.000000 0.208679 0.367107
0.000000 0.242179 0.404196
0.000000 0.280694 0.442746
0.000000 0.313190 0.459933
0.000000 0.330160 0.445416
0.000000 0.344366 0.460173
0.000000 0.319543 0.452654
0.000000 0.335329 0.450785
0.013810 0.360046 0.478041
0.066811 0.403095 0.524095
0.168638 0.442314 0.555388
0.229876 0.484991 0.595547
0.097424 0.414886 0.533503
0.192446 0.457855 0.569827
0.252772 0.499875 0.608372
0.321413 0.538835 0.637220
0.353341 0.552626 0.642885
0.429499 0.561888 0.606910
0.333030 0.543853 0.639281
0.375667 0.556532 0.634833
0.459035 0.567199 0.595576
0.510772 0.620090 0.648979
0.570995 0.675918 0.704545
0.637727 0.725784 0.751756
0.532082 0.640730 0.669658
0.593252 0.696044 0.724499
0.663165 0.742793 0.767346
0.732042 0.795906 0.817222
0.806413 0.846738 0.860597
0.875229 0.890076 0.895199
0.000000 0.127867 0.295525
0.000000 0.154689 0.318902
0.000000 0.173338 0.330955
0.000000 0.205461 0.363652
0.000000 0.242179 0.404196
0.000000 0.280694 0.442746
0.000000 0.218251 0.377382
0.000000 0.255864 0.419532
0.000000 0.295021 0.455299
0.000000 0.319543 0.452654
0.000000 0.335329 0.450785
0.010336 0.356101 0.473546
0.000000 0.325916 0.445353
0.000000 0.340497 0.456154
0.024145 0.371781 0.491414
0.097424 0.414886 0.533503
0.192446 0.457855 0.569827
0.252772 0.499875 0.608372
0.138025 0.430524 0.545981
0.213786 0.473326 0.584490
0.277747 0.514051 0.618868
0.333030 0.543853 0.639281
0.375667 0.556532 0.634833
0.452640 0.564190 0.594906
0.344610 0.548854 0.641336
0.398808 0.558834 0.622829
0.474589 0.583100 0.611631
0.532082 0.640730 0.669658
0.593252 0.696044 0.724499
0.663165 0.742793 0.767346
0.554338 0.660856 0.689612
0.618689 0.713054 0.740089
0.688289 0.761307 0.784605
0.757437 0.815460 0.835353
0.827466 0.860184 0.871449
0.891935 0.900427 0.903357
0.000000 0.135283 0.302049
0.000000 0.160295 0.322526
0.000000 0.183099 0.339647
0.000000 0.218251 0.377382
0.000000 0.255864 0.419532
0.000000 0.295021 0.455299
0.000000 0.231937 0.392718
0.000000 0.269891 0.433281
0.000000 0.308400 0.465420
0.000000 0.324333 0.447166
0.000000 0.339197 0.454804
0.024145 0.371781 0.491414
0.000000 0.330160 0.445416
0.000000 0.344366 0.460173
0.037955 0.387461 0.509283
0.138025 0.430524 0.545981
0.213786 0.473326 0.584490
0.277747 0.514051 0.618868
0.176356 0.446191 0.558770
0.235194 0.488847 0.599201
0.302722 0.528226 0.629365
0.341724 0.547608 0.640824
0.398808 0.558834 0.622829
0.474589 0.583100 0.611631
0.353341 0.552626 0.642885
0.429499 0.561888 0.606910
0.495218 0.604189 0.632924
0.554338 0.660856 0.689612
0.618689 0.713054 0.740089
0.688289 0.761307 0.784605
0.576595 0.680982 0.709565
0.644046 0.730009 0.755629
0.707097 0.776180 0.798626
0.778490 0.828906 0.846205
0.852907 0.876246 0.884298
0.914258 0.914258 0.914258
