profils/20230909_vandyke_3min/profils/LUT3Dscreen-VanDyke_3min.cube
#Created by: Easy Digital Negatives
TITLE  "Easy Digital Negatives"
LUT_3D_SIZE 6
DOMAIN_MIN 0.0 0.0 0.0
DOMAIN_MAX 1.0 1.0 1.0
#LUT data points
0.087788 0.060308 0.000000
0.115168 0.092626 0.045041
0.149794 0.126441 0.081519
0.186919 0.159027 0.110602
0.223093 0.190643 0.137909
0.263331 0.226449 0.169731
0.197209 0.167739 0.117810
0.238375 0.204410 0.150264
0.276194 0.237443 0.179181
0.310523 0.268607 0.206074
0.344709 0.300653 0.233720
0.380264 0.331953 0.260807
0.322568 0.280288 0.216193
0.357863 0.312152 0.243550
0.391920 0.342646 0.270705
0.420030 0.369054 0.295225
0.448290 0.397474 0.322204
0.475535 0.426660 0.352930
0.430359 0.379359 0.304867
0.458203 0.408093 0.333384
0.494343 0.443934 0.368416
0.548144 0.493901 0.413712
0.595155 0.543682 0.464934
0.636155 0.586373 0.505713
0.565249 0.512014 0.432349
0.610073 0.559215 0.479772
0.651301 0.601976 0.520579
0.689828 0.641340 0.558012
0.723911 0.677507 0.604323
0.756928 0.711167 0.642032
0.702478 0.654713 0.574707
0.736004 0.690077 0.619452
0.768896 0.723229 0.654946
0.809608 0.773691 0.710535
0.850337 0.827585 0.769271
0.882640 0.873803 0.841558
0.097750 0.072066 0.016388
0.126865 0.104720 0.059311
0.159651 0.135778 0.091066
0.197209 0.167739 0.117810
0.238375 0.204410 0.150264
0.276194 0.237443 0.179181
0.211572 0.180262 0.128593
0.253705 0.218222 0.162659
0.289057 0.248436 0.188631
0.322568 0.280288 0.216193
0.357863 0.312152 0.243550
0.389025 0.339990 0.268246
0.334790 0.291983 0.226309
0.367782 0.320822 0.250961
0.400644 0.350649 0.278112
0.430359 0.379359 0.304867
0.458203 0.408093 0.333384
0.494343 0.443934 0.368416
0.440689 0.389664 0.314508
0.468084 0.418679 0.344528
0.514348 0.462094 0.384460
0.565249 0.512014 0.432349
0.606319 0.555307 0.476039
0.647473 0.598065 0.516860
0.582354 0.530126 0.450986
0.621237 0.570840 0.490876
0.662884 0.613810 0.531833
0.702478 0.654713 0.574707
0.736004 0.690077 0.619452
0.768896 0.723229 0.654946
0.714698 0.667709 0.591592
0.747972 0.702140 0.632366
0.783709 0.741590 0.675172
0.824389 0.792840 0.731476
0.861491 0.842521 0.785518
0.890389 0.885367 0.862973
0.105205 0.080867 0.028653
0.136722 0.114057 0.068858
0.173271 0.147473 0.101043
0.211572 0.180262 0.128593
0.253705 0.218222 0.162659
0.289057 0.248436 0.188631
0.226902 0.194074 0.140988
0.266567 0.229215 0.172109
0.301442 0.259801 0.198444
0.331650 0.289094 0.223823
0.367782 0.320822 0.250961
0.400644 0.350649 0.278112
0.344709 0.300653 0.233720
0.380264 0.331953 0.260807
0.412300 0.361342 0.288010
0.440689 0.389664 0.314508
0.468084 0.418679 0.344528
0.514348 0.462094 0.384460
0.450752 0.400112 0.324981
0.479259 0.430241 0.356318
0.529432 0.475787 0.396558
0.578050 0.525569 0.446297
0.621237 0.570840 0.490876
0.662884 0.613810 0.531833
0.595155 0.543682 0.464934
0.636155 0.586373 0.505713
0.678245 0.629505 0.546758
0.714698 0.667709 0.591592
0.747972 0.702140 0.632366
0.779982 0.736970 0.670083
0.726956 0.680746 0.608531
0.759940 0.714202 0.645281
0.794795 0.755331 0.690309
0.835543 0.807776 0.747723
0.872363 0.858465 0.813156
0.902817 0.900939 0.887953
0.115168 0.092626 0.045041
0.149794 0.126441 0.081519
0.186919 0.159027 0.110602
0.226902 0.194074 0.140988
0.263331 0.226449 0.169731
0.298440 0.256890 0.195922
0.242232 0.207885 0.153383
0.276194 0.237443 0.179181
0.310523 0.268607 0.206074
0.344709 0.300653 0.233720
0.380264 0.331953 0.260807
0.412300 0.361342 0.288010
0.357863 0.312152 0.243550
0.391920 0.342646 0.270705
0.422629 0.371647 0.297651
0.450752 0.400112 0.324981
0.475535 0.426660 0.352930
0.529432 0.475787 0.396558
0.458203 0.408093 0.333384
0.494343 0.443934 0.368416
0.548144 0.493901 0.413712
0.595155 0.543682 0.464934
0.636155 0.586373 0.505713
0.678245 0.629505 0.546758
0.610073 0.559215 0.479772
0.651301 0.601976 0.520579
0.693264 0.644915 0.561975
0.723911 0.677507 0.604323
0.756928 0.711167 0.642032
0.794795 0.755331 0.690309
0.736004 0.690077 0.619452
0.768896 0.723229 0.654946
0.809608 0.773691 0.710535
0.850337 0.827585 0.769271
0.882640 0.873803 0.841558
0.918058 0.916863 0.908602
0.126865 0.104720 0.059311
0.162980 0.138761 0.093835
0.197209 0.167739 0.117810
0.238375 0.204410 0.150264
0.276194 0.237443 0.179181
0.310523 0.268607 0.206074
0.253705 0.218222 0.162659
0.289057 0.248436 0.188631
0.322568 0.280288 0.216193
0.357863 0.312152 0.243550
0.391920 0.342646 0.270705
0.420030 0.369054 0.295225
0.371060 0.323688 0.253411
0.403576 0.353339 0.280602
0.430359 0.379359 0.304867
0.458203 0.408093 0.333384
0.494343 0.443934 0.368416
0.548144 0.493901 0.413712
0.468084 0.418679 0.344528
0.514348 0.462094 0.384460
0.565249 0.512014 0.432349
0.610073 0.559215 0.479772
0.651301 0.601976 0.520579
0.689828 0.641340 0.558012
0.624943 0.574698 0.494561
0.662884 0.613810 0.531833
0.702478 0.654713 0.574707
0.736004 0.690077 0.619452
0.768896 0.723229 0.654946
0.809608 0.773691 0.710535
0.747972 0.702140 0.632366
0.783709 0.741590 0.675172
0.824389 0.792840 0.731476
0.864615 0.846901 0.791742
0.890389 0.885367 0.862973
0.929464 0.928781 0.924056
0.136722 0.114057 0.068858
0.173271 0.147473 0.101043
0.211572 0.180262 0.128593
0.253705 0.218222 0.162659
0.289057 0.248436 0.188631
0.322568 0.280288 0.216193
0.266567 0.229215 0.172109
0.301442 0.259801 0.198444
0.334790 0.291983 0.226309
0.367782 0.320822 0.250961
0.400644 0.350649 0.278112
0.430359 0.379359 0.304867
0.380264 0.331953 0.260807
0.412300 0.361342 0.288010
0.440689 0.389664 0.314508
0.468084 0.418679 0.344528
0.514348 0.462094 0.384460
0.565249 0.512014 0.432349
0.479259 0.430241 0.356318
0.534417 0.480313 0.400557
0.582354 0.530126 0.450986
0.621237 0.570840 0.490876
0.662884 0.613810 0.531833
0.702478 0.654713 0.574707
0.636155 0.586373 0.505713
0.678245 0.629505 0.546758
0.714698 0.667709 0.591592
0.747972 0.702140 0.632366
0.783709 0.741590 0.675172
0.824389 0.792840 0.731476
0.759940 0.714202 0.645281
0.798475 0.759892 0.695334
0.835543 0.807776 0.747723
0.872363 0.858465 0.813156
0.902817 0.900939 0.887953
0.944705 0.944705 0.944705
