profils/20230909_vandyke_3min/profils/LUT3Dscreen-VanDyke_3min.cube
#Created by: Easy Digital Negatives
TITLE  "Easy Digital Negatives"
LUT_3D_SIZE 21
DOMAIN_MIN 0.0 0.0 0.0
DOMAIN_MAX 1.0 1.0 1.0
#LUT data points
0.087788 0.060308 0.000000
0.095243 0.069108 0.012265
0.102731 0.077946 0.024582
0.107680 0.083788 0.032724
0.115168 0.092626 0.045041
0.123607 0.101634 0.056155
0.130164 0.107845 0.062507
0.139979 0.117143 0.072013
0.149794 0.126441 0.081519
0.156352 0.132653 0.087870
0.166425 0.141677 0.096248
0.176672 0.150352 0.103425
0.186919 0.159027 0.110602
0.193764 0.164823 0.115397
0.204011 0.173498 0.122575
0.215428 0.183737 0.131712
0.223093 0.190643 0.137909
0.234567 0.200979 0.147185
0.246040 0.211316 0.156462
0.253705 0.218222 0.162659
0.263331 0.226449 0.169731
0.110186 0.086746 0.036847
0.117642 0.095547 0.049112
0.126865 0.104720 0.059311
0.133422 0.110931 0.065662
0.143279 0.120269 0.075209
0.153094 0.129566 0.084715
0.162980 0.138761 0.093835
0.169826 0.144557 0.098630
0.180073 0.153232 0.105807
0.190363 0.161944 0.113015
0.200610 0.170619 0.120193
0.207763 0.176831 0.125515
0.219237 0.187168 0.134791
0.230710 0.197505 0.144067
0.238375 0.204410 0.150264
0.249897 0.214791 0.159580
0.260136 0.223718 0.167384
0.266567 0.229215 0.172109
0.276194 0.237443 0.179181
0.285820 0.245670 0.186253
0.292252 0.251167 0.190978
0.139979 0.117143 0.072013
0.146537 0.123355 0.078364
0.156352 0.132653 0.087870
0.166425 0.141677 0.096248
0.173271 0.147473 0.101043
0.183518 0.156148 0.108220
0.193764 0.164823 0.115397
0.204011 0.173498 0.122575
0.211572 0.180262 0.128593
0.223093 0.190643 0.137909
0.234567 0.200979 0.147185
0.242232 0.207885 0.153383
0.253705 0.218222 0.162659
0.263331 0.226449 0.169731
0.272999 0.234712 0.176834
0.279389 0.240174 0.181528
0.289057 0.248436 0.188631
0.298440 0.256890 0.195922
0.304482 0.262749 0.200998
0.313525 0.271518 0.208596
0.322568 0.280288 0.216193
0.166425 0.141677 0.096248
0.176672 0.150352 0.103425
0.186919 0.159027 0.110602
0.193764 0.164823 0.115397
0.204011 0.173498 0.122575
0.215428 0.183737 0.131712
0.226902 0.194074 0.140988
0.234567 0.200979 0.147185
0.246040 0.211316 0.156462
0.256900 0.220953 0.165006
0.263331 0.226449 0.169731
0.272999 0.234712 0.176834
0.282625 0.242940 0.183906
0.289057 0.248436 0.188631
0.298440 0.256890 0.195922
0.307483 0.265659 0.203520
0.316565 0.274466 0.211150
0.322568 0.280288 0.216193
0.331650 0.289094 0.223823
0.341388 0.297750 0.231239
0.347987 0.303518 0.236170
0.197209 0.167739 0.117810
0.207763 0.176831 0.125515
0.219237 0.187168 0.134791
0.230710 0.197505 0.144067
0.238375 0.204410 0.150264
0.249897 0.214791 0.159580
0.260136 0.223718 0.167384
0.266567 0.229215 0.172109
0.276194 0.237443 0.179181
0.285820 0.245670 0.186253
0.295438 0.253979 0.193400
0.301442 0.259801 0.198444
0.310523 0.268607 0.206074
0.319567 0.277377 0.213671
0.328610 0.286146 0.221269
0.334790 0.291983 0.226309
0.344709 0.300653 0.233720
0.354585 0.309286 0.241100
0.361184 0.315054 0.246031
0.371060 0.323688 0.253411
0.380264 0.331953 0.260807
0.234567 0.200979 0.147185
0.246040 0.211316 0.156462
0.253705 0.218222 0.162659
0.263331 0.226449 0.169731
0.272999 0.234712 0.176834
0.279389 0.240174 0.181528
0.289057 0.248436 0.188631
0.298440 0.256890 0.195922
0.304482 0.262749 0.200998
0.313525 0.271518 0.208596
0.322568 0.280288 0.216193
0.331650 0.289094 0.223823
0.338110 0.294885 0.228790
0.347987 0.303518 0.236170
0.357863 0.312152 0.243550
0.364462 0.317920 0.248480
0.374338 0.326553 0.255860
0.383197 0.334644 0.263297
0.391920 0.342646 0.270705
0.397748 0.347993 0.275653
0.406472 0.355995 0.283061
0.266567 0.229215 0.172109
0.276194 0.237443 0.179181
0.285820 0.245670 0.186253
0.292252 0.251167 0.190978
0.301442 0.259801 0.198444
0.310523 0.268607 0.206074
0.316565 0.274466 0.211150
0.325608 0.283236 0.218747
0.334790 0.291983 0.226309
0.344709 0.300653 0.233720
0.351265 0.306384 0.238619
0.361184 0.315054 0.246031
0.371060 0.323688 0.253411
0.377369 0.329297 0.258348
0.386092 0.337300 0.265756
0.394816 0.345303 0.273163
0.400644 0.350649 0.278112
0.409404 0.358686 0.285551
0.417464 0.366494 0.292830
0.425195 0.374207 0.300046
0.430359 0.379359 0.304867
0.295438 0.253979 0.193400
0.301442 0.259801 0.198444
0.310523 0.268607 0.206074
0.319567 0.277377 0.213671
0.328610 0.286146 0.221269
0.334790 0.291983 0.226309
0.344709 0.300653 0.233720
0.354585 0.309286 0.241100
0.361184 0.315054 0.246031
0.371060 0.323688 0.253411
0.380264 0.331953 0.260807
0.386092 0.337300 0.265756
0.394816 0.345303 0.273163
0.403576 0.353339 0.280602
0.412300 0.361342 0.288010
0.417464 0.366494 0.292830
0.425195 0.374207 0.300046
0.432925 0.381919 0.307262
0.440689 0.389664 0.314508
0.445827 0.394836 0.319427
0.453246 0.402784 0.327794
0.322568 0.280288 0.216193
0.331650 0.289094 0.223823
0.338110 0.294885 0.228790
0.347987 0.303518 0.236170
0.357863 0.312152 0.243550
0.367782 0.320822 0.250961
0.374338 0.326553 0.255860
0.383197 0.334644 0.263297
0.391920 0.342646 0.270705
0.397748 0.347993 0.275653
0.406472 0.355995 0.283061
0.414865 0.363902 0.290405
0.420030 0.369054 0.295225
0.427794 0.376799 0.302472
0.435524 0.384511 0.309688
0.443255 0.392224 0.316903
0.448290 0.397474 0.322204
0.455709 0.405422 0.330571
0.463159 0.413403 0.338974
0.468084 0.418679 0.344528
0.475535 0.426660 0.352930
0.351265 0.306384 0.238619
0.361184 0.315054 0.246031
0.371060 0.323688 0.253411
0.377369 0.329297 0.258348
0.386092 0.337300 0.265756
0.394816 0.345303 0.273163
0.403576 0.353339 0.280602
0.409404 0.358686 0.285551
0.417464 0.366494 0.292830
0.425195 0.374207 0.300046
0.430359 0.379359 0.304867
0.438090 0.387071 0.312083
0.445827 0.394836 0.319427
0.453246 0.402784 0.327794
0.458203 0.408093 0.333384
0.465622 0.416041 0.341751
0.473041 0.423988 0.350118
0.479259 0.430241 0.356318
0.494343 0.443934 0.368416
0.509363 0.457569 0.380462
0.519397 0.466678 0.388510
0.383197 0.334644 0.263297
0.389025 0.339990 0.268246
0.397748 0.347993 0.275653
0.406472 0.355995 0.283061
0.412300 0.361342 0.288010
0.420030 0.369054 0.295225
0.427794 0.376799 0.302472
0.432925 0.381919 0.307262
0.440689 0.389664 0.314508
0.448290 0.397474 0.322204
0.455709 0.405422 0.330571
0.460665 0.410731 0.336161
0.468084 0.418679 0.344528
0.475535 0.426660 0.352930
0.489294 0.439351 0.364366
0.499328 0.448460 0.372414
0.514348 0.462094 0.384460
0.529432 0.475787 0.396558
0.539403 0.484838 0.404555
0.552447 0.498458 0.418401
0.565249 0.512014 0.432349
0.406472 0.355995 0.283061
0.414865 0.363902 0.290405
0.422629 0.371647 0.297651
0.427794 0.376799 0.302472
0.435524 0.384511 0.309688
0.443255 0.392224 0.316903
0.450752 0.400112 0.324981
0.455709 0.405422 0.330571
0.463159 0.413403 0.338974
0.470578 0.421350 0.347340
0.475535 0.426660 0.352930
0.489294 0.439351 0.364366
0.504314 0.452985 0.376412
0.514348 0.462094 0.384460
0.529432 0.475787 0.396558
0.543895 0.489402 0.409082
0.556696 0.502957 0.423030
0.565249 0.512014 0.432349
0.578050 0.525569 0.446297
0.590906 0.539182 0.460305
0.598861 0.547540 0.468620
0.430359 0.379359 0.304867
0.438090 0.387071 0.312083
0.445827 0.394836 0.319427
0.453246 0.402784 0.327794
0.458203 0.408093 0.333384
0.465622 0.416041 0.341751
0.473041 0.423988 0.350118
0.479259 0.430241 0.356318
0.494343 0.443934 0.368416
0.509363 0.457569 0.380462
0.524383 0.471204 0.392509
0.534417 0.480313 0.400557
0.548144 0.493901 0.413712
0.561000 0.507514 0.427719
0.569498 0.516513 0.436979
0.582354 0.530126 0.450986
0.595155 0.543682 0.464934
0.606319 0.555307 0.476039
0.613778 0.563073 0.483457
0.624943 0.574698 0.494561
0.636155 0.586373 0.505713
0.455709 0.405422 0.330571
0.463159 0.413403 0.338974
0.468084 0.418679 0.344528
0.475535 0.426660 0.352930
0.489294 0.439351 0.364366
0.499328 0.448460 0.372414
0.514348 0.462094 0.384460
0.529432 0.475787 0.396558
0.539403 0.484838 0.404555
0.552447 0.498458 0.418401
0.565249 0.512014 0.432349
0.578050 0.525569 0.446297
0.586603 0.534625 0.455616
0.598861 0.547540 0.468620
0.610073 0.559215 0.479772
0.617532 0.566981 0.487190
0.628696 0.578607 0.498294
0.639861 0.590232 0.509399
0.651301 0.601976 0.520579
0.659007 0.609849 0.528066
0.670589 0.621683 0.539319
0.479259 0.430241 0.356318
0.494343 0.443934 0.368416
0.509363 0.457569 0.380462
0.519397 0.466678 0.388510
0.534417 0.480313 0.400557
0.548144 0.493901 0.413712
0.556696 0.502957 0.423030
0.569498 0.516513 0.436979
0.582354 0.530126 0.450986
0.590906 0.539182 0.460305
0.602614 0.551448 0.472353
0.613778 0.563073 0.483457
0.624943 0.574698 0.494561
0.632402 0.582465 0.501980
0.643645 0.594153 0.513140
0.655179 0.605937 0.524346
0.662884 0.613810 0.531833
0.674417 0.625594 0.543039
0.685951 0.637378 0.554245
0.693264 0.644915 0.561975
0.702478 0.654713 0.574707
0.524383 0.471204 0.392509
0.534417 0.480313 0.400557
0.548144 0.493901 0.413712
0.561000 0.507514 0.427719
0.569498 0.516513 0.436979
0.582354 0.530126 0.450986
0.595155 0.543682 0.464934
0.606319 0.555307 0.476039
0.613778 0.563073 0.483457
0.624943 0.574698 0.494561
0.636155 0.586373 0.505713
0.643645 0.594153 0.513140
0.655179 0.605937 0.524346
0.666712 0.617721 0.535552
0.678245 0.629505 0.546758
0.685951 0.637378 0.554245
0.696349 0.648195 0.566237
0.705523 0.657952 0.578914
0.714698 0.667709 0.591592
0.720827 0.674227 0.600061
0.730001 0.683984 0.612738
0.565249 0.512014 0.432349
0.578050 0.525569 0.446297
0.586603 0.534625 0.455616
0.598861 0.547540 0.468620
0.610073 0.559215 0.479772
0.621237 0.570840 0.490876
0.628696 0.578607 0.498294
0.639861 0.590232 0.509399
0.651301 0.601976 0.520579
0.659007 0.609849 0.528066
0.670589 0.621683 0.539319
0.682123 0.633467 0.550525
0.689828 0.641340 0.558012
0.699394 0.651433 0.570445
0.708568 0.661190 0.583122
0.717782 0.670989 0.595853
0.723911 0.677507 0.604323
0.733031 0.687081 0.616244
0.741988 0.696108 0.625909
0.747972 0.702140 0.632366
0.756928 0.711167 0.642032
0.602614 0.551448 0.472353
0.613778 0.563073 0.483457
0.624943 0.574698 0.494561
0.632402 0.582465 0.501980
0.643645 0.594153 0.513140
0.655179 0.605937 0.524346
0.666712 0.617721 0.535552
0.674417 0.625594 0.543039
0.685951 0.637378 0.554245
0.696349 0.648195 0.566237
0.702478 0.654713 0.574707
0.711652 0.664470 0.587384
0.720827 0.674227 0.600061
0.730001 0.683984 0.612738
0.736004 0.690077 0.619452
0.744999 0.699143 0.629158
0.753956 0.708171 0.638824
0.759940 0.714202 0.645281
0.768896 0.723229 0.654946
0.779982 0.736970 0.670083
0.787389 0.746150 0.680196
0.639861 0.590232 0.509399
0.647473 0.598065 0.516860
0.659007 0.609849 0.528066
0.670589 0.621683 0.539319
0.678245 0.629505 0.546758
0.689828 0.641340 0.558012
0.699394 0.651433 0.570445
0.705523 0.657952 0.578914
0.714698 0.667709 0.591592
0.723911 0.677507 0.604323
0.733031 0.687081 0.616244
0.739015 0.693112 0.622701
0.747972 0.702140 0.632366
0.756928 0.711167 0.642032
0.765923 0.720233 0.651738
0.772576 0.727790 0.659971
0.783709 0.741590 0.675172
0.794795 0.755331 0.690309
0.802201 0.764511 0.700422
0.813287 0.778252 0.715560
0.824389 0.792840 0.731476
0.670589 0.621683 0.539319
0.682123 0.633467 0.550525
0.693264 0.644915 0.561975
0.699394 0.651433 0.570445
0.708568 0.661190 0.583122
0.717782 0.670989 0.595853
0.723911 0.677507 0.604323
0.733031 0.687081 0.616244
0.741988 0.696108 0.625909
0.750945 0.705136 0.635575
0.756928 0.711167 0.642032
0.765923 0.720233 0.651738
0.776303 0.732409 0.665059
0.783709 0.741590 0.675172
0.794795 0.755331 0.690309
0.805881 0.769072 0.705447
0.813287 0.778252 0.715560
0.824389 0.792840 0.731476
0.835543 0.807776 0.747723
0.846650 0.822649 0.763901
0.854070 0.832585 0.774710
0.702478 0.654713 0.574707
0.711652 0.664470 0.587384
0.720827 0.674227 0.600061
0.730001 0.683984 0.612738
0.736004 0.690077 0.619452
0.744999 0.699143 0.629158
0.753956 0.708171 0.638824
0.759940 0.714202 0.645281
0.768896 0.723229 0.654946
0.779982 0.736970 0.670083
0.791115 0.750770 0.685285
0.798475 0.759892 0.695334
0.809608 0.773691 0.710535
0.820702 0.787904 0.726107
0.828123 0.797840 0.736915
0.839230 0.812713 0.753093
0.850337 0.827585 0.769271
0.861491 0.842521 0.785518
0.867208 0.850772 0.798910
0.874924 0.862287 0.820234
0.882640 0.873803 0.841558
0.090262 0.063229 0.004071
0.097750 0.072066 0.016388
0.102731 0.077946 0.024582
0.110186 0.086746 0.036847
0.117642 0.095547 0.049112
0.126865 0.104720 0.059311
0.133422 0.110931 0.065662
0.143279 0.120269 0.075209
0.153094 0.129566 0.084715
0.159651 0.135778 0.091066
0.169826 0.144557 0.098630
0.180073 0.153232 0.105807
0.186919 0.159027 0.110602
0.197209 0.167739 0.117810
0.207763 0.176831 0.125515
0.219237 0.187168 0.134791
0.226902 0.194074 0.140988
0.238375 0.204410 0.150264
0.249897 0.214791 0.159580
0.256900 0.220953 0.165006
0.266567 0.229215 0.172109
0.112661 0.089667 0.040918
0.120349 0.098548 0.053000
0.130164 0.107845 0.062507
0.136722 0.114057 0.068858
0.146537 0.123355 0.078364
0.156352 0.132653 0.087870
0.166425 0.141677 0.096248
0.173271 0.147473 0.101043
0.183518 0.156148 0.108220
0.193764 0.164823 0.115397
0.200610 0.170619 0.120193
0.211572 0.180262 0.128593
0.223093 0.190643 0.137909
0.234567 0.200979 0.147185
0.242232 0.207885 0.153383
0.253705 0.218222 0.162659
0.263331 0.226449 0.169731
0.269763 0.231946 0.174456
0.279389 0.240174 0.181528
0.289057 0.248436 0.188631
0.295438 0.253979 0.193400
0.143279 0.120269 0.075209
0.149794 0.126441 0.081519
0.159651 0.135778 0.091066
0.169826 0.144557 0.098630
0.176672 0.150352 0.103425
0.186919 0.159027 0.110602
0.197209 0.167739 0.117810
0.204011 0.173498 0.122575
0.215428 0.183737 0.131712
0.226902 0.194074 0.140988
0.238375 0.204410 0.150264
0.246040 0.211316 0.156462
0.256900 0.220953 0.165006
0.266567 0.229215 0.172109
0.276194 0.237443 0.179181
0.282625 0.242940 0.183906
0.292252 0.251167 0.190978
0.301442 0.259801 0.198444
0.307483 0.265659 0.203520
0.316565 0.274466 0.211150
0.325608 0.283236 0.218747
0.169826 0.144557 0.098630
0.180073 0.153232 0.105807
0.190363 0.161944 0.113015
0.197209 0.167739 0.117810
0.207763 0.176831 0.125515
0.219237 0.187168 0.134791
0.226902 0.194074 0.140988
0.238375 0.204410 0.150264
0.249897 0.214791 0.159580
0.260136 0.223718 0.167384
0.266567 0.229215 0.172109
0.276194 0.237443 0.179181
0.285820 0.245670 0.186253
0.292252 0.251167 0.190978
0.301442 0.259801 0.198444
0.310523 0.268607 0.206074
0.316565 0.274466 0.211150
0.325608 0.283236 0.218747
0.334790 0.291983 0.226309
0.344709 0.300653 0.233720
0.351265 0.306384 0.238619
0.200610 0.170619 0.120193
0.211572 0.180262 0.128593
0.223093 0.190643 0.137909
0.230710 0.197505 0.144067
0.242232 0.207885 0.153383
0.253705 0.218222 0.162659
0.263331 0.226449 0.169731
0.269763 0.231946 0.174456
0.279389 0.240174 0.181528
0.289057 0.248436 0.188631
0.298440 0.256890 0.195922
0.304482 0.262749 0.200998
0.313525 0.271518 0.208596
0.322568 0.280288 0.216193
0.328610 0.286146 0.221269
0.338110 0.294885 0.228790
0.347987 0.303518 0.236170
0.357863 0.312152 0.243550
0.364462 0.317920 0.248480
0.374338 0.326553 0.255860
0.383197 0.334644 0.263297
0.238375 0.204410 0.150264
0.246040 0.211316 0.156462
0.256900 0.220953 0.165006
0.266567 0.229215 0.172109
0.276194 0.237443 0.179181
0.282625 0.242940 0.183906
0.292252 0.251167 0.190978
0.301442 0.259801 0.198444
0.307483 0.265659 0.203520
0.316565 0.274466 0.211150
0.325608 0.283236 0.218747
0.331650 0.289094 0.223823
0.341388 0.297750 0.231239
0.351265 0.306384 0.238619
0.361184 0.315054 0.246031
0.367782 0.320822 0.250961
0.377369 0.329297 0.258348
0.386092 0.337300 0.265756
0.394816 0.345303 0.273163
0.400644 0.350649 0.278112
0.409404 0.358686 0.285551
0.269763 0.231946 0.174456
0.279389 0.240174 0.181528
0.289057 0.248436 0.188631
0.295438 0.253979 0.193400
0.304482 0.262749 0.200998
0.313525 0.271518 0.208596
0.319567 0.277377 0.213671
0.328610 0.286146 0.221269
0.338110 0.294885 0.228790
0.344709 0.300653 0.233720
0.354585 0.309286 0.241100
0.364462 0.317920 0.248480
0.374338 0.326553 0.255860
0.380264 0.331953 0.260807
0.389025 0.339990 0.268246
0.397748 0.347993 0.275653
0.403576 0.353339 0.280602
0.412300 0.361342 0.288010
0.420030 0.369054 0.295225
0.425195 0.374207 0.300046
0.432925 0.381919 0.307262
0.298440 0.256890 0.195922
0.304482 0.262749 0.200998
0.313525 0.271518 0.208596
0.322568 0.280288 0.216193
0.328610 0.286146 0.221269
0.338110 0.294885 0.228790
0.347987 0.303518 0.236170
0.357863 0.312152 0.243550
0.364462 0.317920 0.248480
0.374338 0.326553 0.255860
0.383197 0.334644 0.263297
0.389025 0.339990 0.268246
0.397748 0.347993 0.275653
0.406472 0.355995 0.283061
0.414865 0.363902 0.290405
0.420030 0.369054 0.295225
0.427794 0.376799 0.302472
0.435524 0.384511 0.309688
0.440689 0.389664 0.314508
0.448290 0.397474 0.322204
0.455709 0.405422 0.330571
0.325608 0.283236 0.218747
0.334790 0.291983 0.226309
0.341388 0.297750 0.231239
0.351265 0.306384 0.238619
0.361184 0.315054 0.246031
0.371060 0.323688 0.253411
0.377369 0.329297 0.258348
0.386092 0.337300 0.265756
0.394816 0.345303 0.273163
0.400644 0.350649 0.278112
0.409404 0.358686 0.285551
0.417464 0.366494 0.292830
0.422629 0.371647 0.297651
0.430359 0.379359 0.304867
0.438090 0.387071 0.312083
0.443255 0.392224 0.316903
0.450752 0.400112 0.324981
0.458203 0.408093 0.333384
0.465622 0.416041 0.341751
0.470578 0.421350 0.347340
0.479259 0.430241 0.356318
0.354585 0.309286 0.241100
0.364462 0.317920 0.248480
0.374338 0.326553 0.255860
0.380264 0.331953 0.260807
0.389025 0.339990 0.268246
0.397748 0.347993 0.275653
0.406472 0.355995 0.283061
0.412300 0.361342 0.288010
0.420030 0.369054 0.295225
0.427794 0.376799 0.302472
0.432925 0.381919 0.307262
0.440689 0.389664 0.314508
0.448290 0.397474 0.322204
0.453246 0.402784 0.327794
0.460665 0.410731 0.336161
0.468084 0.418679 0.344528
0.475535 0.426660 0.352930
0.484308 0.434825 0.360368
0.499328 0.448460 0.372414
0.514348 0.462094 0.384460
0.524383 0.471204 0.392509
0.386092 0.337300 0.265756
0.391920 0.342646 0.270705
0.400644 0.350649 0.278112
0.409404 0.358686 0.285551
0.414865 0.363902 0.290405
0.422629 0.371647 0.297651
0.430359 0.379359 0.304867
0.435524 0.384511 0.309688
0.443255 0.392224 0.316903
0.450752 0.400112 0.324981
0.458203 0.408093 0.333384
0.463159 0.413403 0.338974
0.470578 0.421350 0.347340
0.479259 0.430241 0.356318
0.494343 0.443934 0.368416
0.504314 0.452985 0.376412
0.519397 0.466678 0.388510
0.534417 0.480313 0.400557
0.543895 0.489402 0.409082
0.556696 0.502957 0.423030
0.569498 0.516513 0.436979
0.409404 0.358686 0.285551
0.417464 0.366494 0.292830
0.425195 0.374207 0.300046
0.430359 0.379359 0.304867
0.438090 0.387071 0.312083
0.445827 0.394836 0.319427
0.450752 0.400112 0.324981
0.458203 0.408093 0.333384
0.465622 0.416041 0.341751
0.473041 0.423988 0.350118
0.479259 0.430241 0.356318
0.494343 0.443934 0.368416
0.509363 0.457569 0.380462
0.519397 0.466678 0.388510
0.534417 0.480313 0.400557
0.548144 0.493901 0.413712
0.556696 0.502957 0.423030
0.569498 0.516513 0.436979
0.582354 0.530126 0.450986
0.595155 0.543682 0.464934
0.602614 0.551448 0.472353
0.432925 0.381919 0.307262
0.440689 0.389664 0.314508
0.448290 0.397474 0.322204
0.453246 0.402784 0.327794
0.460665 0.410731 0.336161
0.468084 0.418679 0.344528
0.475535 0.426660 0.352930
0.484308 0.434825 0.360368
0.499328 0.448460 0.372414
0.514348 0.462094 0.384460
0.529432 0.475787 0.396558
0.539403 0.484838 0.404555
0.552447 0.498458 0.418401
0.565249 0.512014 0.432349
0.573801 0.521070 0.441668
0.586603 0.534625 0.455616
0.598861 0.547540 0.468620
0.610073 0.559215 0.479772
0.617532 0.566981 0.487190
0.628696 0.578607 0.498294
0.639861 0.590232 0.509399
0.458203 0.408093 0.333384
0.463159 0.413403 0.338974
0.470578 0.421350 0.347340
0.479259 0.430241 0.356318
0.494343 0.443934 0.368416
0.504314 0.452985 0.376412
0.519397 0.466678 0.388510
0.534417 0.480313 0.400557
0.543895 0.489402 0.409082
0.556696 0.502957 0.423030
0.569498 0.516513 0.436979
0.578050 0.525569 0.446297
0.590906 0.539182 0.460305
0.602614 0.551448 0.472353
0.613778 0.563073 0.483457
0.621237 0.570840 0.490876
0.632402 0.582465 0.501980
0.643645 0.594153 0.513140
0.655179 0.605937 0.524346
0.662884 0.613810 0.531833
0.674417 0.625594 0.543039
0.484308 0.434825 0.360368
0.499328 0.448460 0.372414
0.514348 0.462094 0.384460
0.524383 0.471204 0.392509
0.539403 0.484838 0.404555
0.552447 0.498458 0.418401
0.561000 0.507514 0.427719
0.573801 0.521070 0.441668
0.586603 0.534625 0.455616
0.595155 0.543682 0.464934
0.606319 0.555307 0.476039
0.617532 0.566981 0.487190
0.628696 0.578607 0.498294
0.636155 0.586373 0.505713
0.647473 0.598065 0.516860
0.659007 0.609849 0.528066
0.666712 0.617721 0.535552
0.678245 0.629505 0.546758
0.689828 0.641340 0.558012
0.696349 0.648195 0.566237
0.705523 0.657952 0.578914
0.529432 0.475787 0.396558
0.539403 0.484838 0.404555
0.552447 0.498458 0.418401
0.565249 0.512014 0.432349
0.573801 0.521070 0.441668
0.586603 0.534625 0.455616
0.598861 0.547540 0.468620
0.606319 0.555307 0.476039
0.617532 0.566981 0.487190
0.628696 0.578607 0.498294
0.639861 0.590232 0.509399
0.647473 0.598065 0.516860
0.659007 0.609849 0.528066
0.670589 0.621683 0.539319
0.682123 0.633467 0.550525
0.689828 0.641340 0.558012
0.699394 0.651433 0.570445
0.708568 0.661190 0.583122
0.714698 0.667709 0.591592
0.723911 0.677507 0.604323
0.733031 0.687081 0.616244
0.569498 0.516513 0.436979
0.582354 0.530126 0.450986
0.590906 0.539182 0.460305
0.602614 0.551448 0.472353
0.613778 0.563073 0.483457
0.621237 0.570840 0.490876
0.632402 0.582465 0.501980
0.643645 0.594153 0.513140
0.655179 0.605937 0.524346
0.662884 0.613810 0.531833
0.674417 0.625594 0.543039
0.685951 0.637378 0.554245
0.693264 0.644915 0.561975
0.702478 0.654713 0.574707
0.711652 0.664470 0.587384
0.717782 0.670989 0.595853
0.726956 0.680746 0.608531
0.736004 0.690077 0.619452
0.744999 0.699143 0.629158
0.750945 0.705136 0.635575
0.759940 0.714202 0.645281
0.606319 0.555307 0.476039
0.617532 0.566981 0.487190
0.628696 0.578607 0.498294
0.636155 0.586373 0.505713
0.647473 0.598065 0.516860
0.659007 0.609849 0.528066
0.670589 0.621683 0.539319
0.678245 0.629505 0.546758
0.689828 0.641340 0.558012
0.699394 0.651433 0.570445
0.705523 0.657952 0.578914
0.714698 0.667709 0.591592
0.723911 0.677507 0.604323
0.730001 0.683984 0.612738
0.739015 0.693112 0.622701
0.747972 0.702140 0.632366
0.756928 0.711167 0.642032
0.762912 0.717198 0.648489
0.772576 0.727790 0.659971
0.783709 0.741590 0.675172
0.791115 0.750770 0.685285
0.639861 0.590232 0.509399
0.651301 0.601976 0.520579
0.662884 0.613810 0.531833
0.674417 0.625594 0.543039
0.682123 0.633467 0.550525
0.693264 0.644915 0.561975
0.702478 0.654713 0.574707
0.708568 0.661190 0.583122
0.717782 0.670989 0.595853
0.726956 0.680746 0.608531
0.736004 0.690077 0.619452
0.741988 0.696108 0.625909
0.750945 0.705136 0.635575
0.759940 0.714202 0.645281
0.768896 0.723229 0.654946
0.776303 0.732409 0.665059
0.787389 0.746150 0.680196
0.798475 0.759892 0.695334
0.805881 0.769072 0.705447
0.817016 0.782968 0.720737
0.828123 0.797840 0.736915
0.674417 0.625594 0.543039
0.685951 0.637378 0.554245
0.696349 0.648195 0.566237
0.702478 0.654713 0.574707
0.711652 0.664470 0.587384
0.720827 0.674227 0.600061
0.726956 0.680746 0.608531
0.736004 0.690077 0.619452
0.744999 0.699143 0.629158
0.753956 0.708171 0.638824
0.759940 0.714202 0.645281
0.768896 0.723229 0.654946
0.779982 0.736970 0.670083
0.787389 0.746150 0.680196
0.798475 0.759892 0.695334
0.809608 0.773691 0.710535
0.817016 0.782968 0.720737
0.828123 0.797840 0.736915
0.839230 0.812713 0.753093
0.846650 0.822649 0.763901
0.857757 0.837522 0.780079
0.705523 0.657952 0.578914
0.714698 0.667709 0.591592
0.723911 0.677507 0.604323
0.730001 0.683984 0.612738
0.739015 0.693112 0.622701
0.747972 0.702140 0.632366
0.756928 0.711167 0.642032
0.762912 0.717198 0.648489
0.772576 0.727790 0.659971
0.783709 0.741590 0.675172
0.794795 0.755331 0.690309
0.802201 0.764511 0.700422
0.813287 0.778252 0.715560
0.824389 0.792840 0.731476
0.831809 0.802777 0.742285
0.842964 0.817713 0.758532
0.854070 0.832585 0.774710
0.861491 0.842521 0.785518
0.869769 0.854594 0.805988
0.877485 0.866109 0.827312
0.885234 0.877674 0.848727
0.092769 0.066187 0.008194
